; HEADER_BLOCK_START
; generated by OrcaSlicer 1.6.2 on 2023-07-09 at 00:44:28
; total layer number: 240
; HEADER_BLOCK_END

; THUMBNAIL_BLOCK_START
; THUMBNAIL_BLOCK_END

; external perimeters extrusion width = 0.50mm
; perimeters extrusion width = 0.50mm
; infill extrusion width = 0.50mm
; solid infill extrusion width = 0.50mm
; top infill extrusion width = 0.40mm
; first layer extrusion width = 0.50mm

; EXECUTABLE_BLOCK_START
EXCLUDE_OBJECT_DEFINE NAME=3DBenchy.stl_id_0_copy_0 CENTER=60,60 POLYGON=[[29.9995,50.816],[30.0025,50.755],[30.0065,50.699],[30.0115,50.646],[30.0135,50.63],[30.0195,50.583],[30.0285,50.525],[30.0455,50.436],[30.0585,50.379],[30.0735,50.322],[30.0805,50.296],[30.0975,50.239],[30.1265,50.155],[30.1405,50.118],[30.1625,50.064],[30.1695,50.047],[30.1855,50.01],[30.2095,49.958],[30.2305,49.916],[30.2635,49.854],[30.2785,49.827],[30.2905,49.806],[30.3395,49.727],[30.3575,49.7],[30.3715,49.679],[30.4055,49.631],[30.4405,49.584],[30.4835,49.531],[30.5085,49.501],[30.5385,49.466],[30.5785,49.423],[30.5925,49.408],[30.6005,49.4],[30.6415,49.359],[30.6615,49.34],[30.7045,49.3],[30.7375,49.271],[30.7825,49.234],[30.7935,49.225],[30.8285,49.197],[30.8865,49.154],[30.9345,49.121],[30.9785,49.092],[31.0445,49.052],[31.0715,49.036],[31.1235,49.008],[31.1485,48.995],[31.1755,48.981],[31.1975,48.97],[31.2535,48.944],[31.3115,48.919],[31.3615,48.899],[31.4165,48.879],[31.4285,48.875],[31.4715,48.861],[31.4845,48.857],[31.5405,48.84],[31.5475,48.838],[31.5845,48.828],[31.5965,48.825],[31.6245,48.818],[31.6405,48.814],[31.7105,48.799],[31.7395,48.794],[31.7685,48.789],[31.7975,48.784],[59.8125,44.886],[60.0555,44.853],[60.2995,44.821],[60.5435,44.791],[60.8825,44.752],[61.1055,44.728],[61.3505,44.702],[61.5965,44.678],[61.8425,44.656],[62.0875,44.635],[62.2535,44.622],[62.3335,44.616],[62.5235,44.602],[62.5795,44.598],[62.8265,44.581],[62.9875,44.571],[63.0715,44.566],[63.2325,44.557],[63.4895,44.544],[63.5975,44.539],[63.6195,44.538],[63.7555,44.532],[63.9065,44.526],[64.0505,44.521],[64.1675,44.517],[64.2335,44.515],[64.3425,44.512],[64.4605,44.509],[64.5485,44.507],[64.6895,44.504],[64.8815,44.501],[65.0625,44.499],[65.1805,44.498],[65.5785,44.498],[65.9345,44.5],[66.3695,44.508],[66.4495,44.51],[66.8055,44.52],[66.9125,44.524],[67.2405,44.537],[67.6765,44.558],[68.0095,44.578],[68.0925,44.583],[68.2025,44.59],[68.3755,44.602],[68.4955,44.611],[68.6415,44.622],[68.7285,44.629],[68.9095,44.644],[69.0395,44.655],[69.8325,44.78],[69.8415,44.782],[70.2695,44.888],[70.3775,44.915],[70.5955,44.97],[70.7375,45.007],[70.8135,45.027],[70.9675,45.068],[71.2485,45.145],[71.4245,45.195],[71.6805,45.27],[71.8965,45.334],[72.1105,45.4],[72.3325,45.47],[72.5585,45.543],[72.7525,45.607],[73.0085,45.694],[73.1785,45.753],[73.2325,45.772],[73.4005,45.832],[73.6015,45.905],[73.8225,45.987],[74.0335,46.067],[74.2335,46.145],[74.3435,46.188],[74.4435,46.228],[74.4535,46.232],[74.6625,46.316],[74.8715,46.402],[74.9265,46.425],[75.1345,46.513],[75.3415,46.603],[75.5475,46.693],[75.9575,46.879],[76.1605,46.974],[76.3635,47.07],[76.5655,47.168],[76.7665,47.267],[76.9675,47.367],[77.1665,47.469],[77.3655,47.572],[77.5635,47.677],[77.7615,47.783],[77.9575,47.89],[78.1535,47.999],[78.3485,48.11],[78.5435,48.221],[78.7375,48.334],[78.9305,48.449],[79.1225,48.565],[79.3145,48.683],[79.5055,48.801],[79.6965,48.922],[79.8855,49.043],[80.0745,49.167],[80.2625,49.291],[80.4505,49.417],[80.6375,49.544],[80.8235,49.673],[81.0085,49.803],[81.1925,49.934],[81.3765,50.067],[81.5595,50.201],[81.7425,50.337],[81.9235,50.474],[82.1045,50.612],[82.2845,50.752],[82.4635,50.893],[82.6425,51.036],[82.8205,51.18],[82.9975,51.325],[83.1735,51.472],[83.5235,51.77],[83.6975,51.921],[83.8705,52.074],[84.0425,52.228],[84.2145,52.384],[84.3285,52.489],[84.4975,52.645],[84.6655,52.803],[84.8315,52.962],[84.9965,53.122],[85.1615,53.283],[85.3245,53.445],[85.4865,53.609],[85.6475,53.773],[85.8075,53.939],[85.9665,54.106],[86.1245,54.274],[86.2815,54.443],[86.4375,54.614],[86.5925,54.785],[86.7455,54.958],[86.8985,55.132],[87.0505,55.306],[87.2005,55.483],[87.3495,55.66],[87.4985,55.838],[87.6455,56.017],[87.7915,56.198],[87.9365,56.38],[88.0805,56.563],[88.2235,56.747],[88.3645,56.932],[88.5055,57.118],[88.6455,57.305],[88.7835,57.493],[88.9205,57.683],[89.0565,57.874],[89.1915,58.065],[89.3255,58.258],[89.4585,58.452],[89.5895,58.647],[89.6185,58.692],[89.6515,58.745],[89.6825,58.798],[89.7125,58.852],[89.7415,58.907],[89.7685,58.962],[89.8185,59.076],[89.8345,59.117],[89.8565,59.175],[89.8765,59.233],[89.8955,59.292],[89.9125,59.351],[89.9285,59.413],[89.9425,59.47],[89.9545,59.53],[89.9665,59.593],[89.9755,59.652],[89.9835,59.713],[89.9905,59.774],[89.9955,59.836],[89.9985,59.905],[90.0005,59.966],[90.0005,60.027],[89.9995,60.088],[89.9965,60.149],[89.9915,60.209],[89.9855,60.27],[89.9775,60.331],[89.9685,60.391],[89.9585,60.449],[89.9455,60.512],[89.9325,60.569],[89.9165,60.632],[89.9015,60.686],[89.8835,60.745],[89.8635,60.803],[89.8425,60.861],[89.8205,60.918],[89.7965,60.974],[89.7715,61.03],[89.7445,61.086],[89.7165,61.14],[89.6865,61.194],[89.6555,61.248],[89.6235,61.301],[89.5895,61.353],[89.4725,61.527],[89.3395,61.721],[89.2055,61.914],[89.0715,62.106],[88.9355,62.297],[88.7975,62.487],[88.6595,62.676],[88.5205,62.864],[88.3795,63.05],[88.2375,63.236],[88.0945,63.42],[87.9505,63.604],[87.6585,63.968],[87.5105,64.148],[87.3615,64.328],[87.2105,64.506],[87.0595,64.683],[86.9065,64.86],[86.7525,65.035],[86.5975,65.209],[86.4825,65.337],[86.3255,65.509],[86.1675,65.68],[86.0085,65.85],[85.8485,66.018],[85.6875,66.186],[85.5255,66.352],[85.1995,66.68],[85.0345,66.841],[84.8695,67.002],[84.7035,67.161],[84.5355,67.319],[84.3675,67.475],[84.1985,67.63],[84.0285,67.784],[83.8575,67.937],[83.6855,68.089],[83.5125,68.239],[83.3385,68.388],[83.1635,68.536],[82.9875,68.682],[82.8105,68.827],[82.6325,68.971],[82.4545,69.114],[82.2745,69.256],[82.0935,69.396],[81.9115,69.535],[81.7285,69.673],[81.5445,69.81],[81.3595,69.945],[81.1735,70.08],[80.7995,70.344],[80.6105,70.474],[80.4205,70.603],[80.2305,70.731],[80.0385,70.857],[79.8465,70.982],[79.6525,71.106],[79.4585,71.228],[79.2635,71.349],[79.0665,71.469],[78.8695,71.587],[78.6715,71.704],[78.4725,71.819],[78.2725,71.934],[78.0725,72.046],[77.8705,72.158],[77.5945,72.307],[77.3955,72.412],[77.1965,72.516],[76.9965,72.618],[76.7955,72.719],[76.5945,72.818],[76.3925,72.916],[76.1905,73.012],[75.9875,73.107],[75.7835,73.2],[75.5795,73.292],[75.3745,73.383],[75.1695,73.472],[74.9635,73.559],[74.7565,73.645],[74.6665,73.682],[74.5495,73.73],[74.3415,73.813],[74.1225,73.898],[74.0035,73.944],[73.7045,74.057],[73.4935,74.134],[73.2935,74.206],[73.0715,74.284],[72.8845,74.348],[72.8695,74.353],[72.6565,74.424],[72.4435,74.494],[72.2065,74.57],[72.0055,74.632],[71.9795,74.64],[71.7515,74.709],[71.5235,74.776],[71.2955,74.841],[71.1425,74.884],[71.0655,74.905],[70.9245,74.943],[70.7065,75.001],[70.6065,75.027],[70.4885,75.057],[70.2695,75.112],[69.8435,75.218],[69.3165,75.319],[69.3065,75.32],[69.0505,75.344],[69.0035,75.348],[68.8105,75.364],[68.7255,75.371],[68.5615,75.384],[68.4815,75.39],[68.1345,75.414],[67.6885,75.441],[67.6495,75.443],[67.2645,75.462],[67.1265,75.468],[66.7785,75.481],[66.5645,75.487],[66.3435,75.493],[65.9075,75.5],[65.5215,75.502],[65.1775,75.502],[64.8775,75.499],[64.8215,75.498],[64.5995,75.494],[64.4565,75.491],[64.3385,75.488],[64.1665,75.483],[64.0765,75.48],[63.9305,75.475],[63.7525,75.468],[63.7285,75.467],[63.5705,75.46],[63.4625,75.455],[63.3325,75.448],[63.1335,75.437],[62.8895,75.423],[62.6445,75.407],[62.6295,75.406],[62.3425,75.385],[62.0965,75.366],[61.8495,75.345],[61.6675,75.328],[61.6035,75.322],[61.4235,75.305],[61.1795,75.28],[61.1115,75.273],[60.9355,75.254],[60.6195,75.218],[60.3735,75.188],[60.2045,75.166],[59.8825,75.124],[31.8275,71.22],[31.7925,71.215],[31.7425,71.207],[31.6855,71.196],[31.6535,71.189],[31.5965,71.175],[31.5845,71.172],[31.5475,71.162],[31.5365,71.159],[31.4805,71.142],[31.4285,71.125],[31.4165,71.121],[31.3615,71.101],[31.3115,71.081],[31.2535,71.056],[31.1975,71.03],[31.1555,71.009],[31.1045,70.982],[31.0865,70.972],[31.0445,70.948],[30.9925,70.917],[30.9785,70.908],[30.9435,70.885],[30.9345,70.879],[30.8865,70.846],[30.8475,70.817],[30.8395,70.811],[30.7935,70.775],[30.7555,70.744],[30.7485,70.738],[30.7045,70.7],[30.6615,70.66],[30.6405,70.64],[30.5925,70.592],[30.5575,70.555],[30.5385,70.534],[30.5185,70.511],[30.4805,70.466],[30.4445,70.42],[30.4305,70.402],[30.4095,70.374],[30.4065,70.37],[30.3725,70.322],[30.3575,70.3],[30.3425,70.278],[30.3085,70.224],[30.2785,70.173],[30.2505,70.122],[30.2305,70.084],[30.2185,70.06],[30.1955,70.012],[30.1695,69.954],[30.1485,69.903],[30.1275,69.849],[30.1085,69.793],[30.1075,69.79],[30.0905,69.738],[30.0745,69.682],[30.0595,69.625],[30.0455,69.564],[30.0345,69.507],[30.0255,69.454],[30.0245,69.448],[30.0165,69.396],[30.0115,69.353],[30.0085,69.325],[30.0025,69.245],[30.0005,69.208],[29.9995,69.179],[29.9995,50.816]]
M73 P0 R28
;TYPE:Custom
PRINT_START EXTRUDER_TEMP=250 BED_TEMP=110 AREA_START=29.528,47.302 AREA_END=77.7178,72.697
G90
G21
M83 ; use relative distances for extrusion
; Filament gcode
SET_PRESSURE_ADVANCE ADVANCE=0.065
M106 S0
;LAYER_CHANGE
;Z:0.2
;HEIGHT:0.2
;BEFORE_LAYER_CHANGE
;0.2
G92 E0

G1 E-.4 F3600
G1 Z.2 F36000
;AFTER_LAYER_CHANGE
;0.2
M204 S2000
G1 X32.247 Y50.154
G1 E.4 F3000
;TYPE:Skirt
;WIDTH:0.5
G1 F1800
G1 X32.945 Y49.713 E.02875
G1 X33.636 Y49.394 E.0265
G1 X34.452 Y49.142 E.02971
G1 X35.363 Y48.997 E.03213
G1 X60.312 Y47.532 E.87006
G1 X62.6 Y47.699 E.07987
G1 X65.083 Y48.199 E.08819
G1 X67.489 Y49.023 E.08855
G1 X69.819 Y50.191 E.09071
G1 X71.926 Y51.625 E.08873
G1 X73.788 Y53.29 E.08697
G1 X75.461 Y55.237 E.08937
G1 X76.815 Y57.318 E.08643
G1 X77.356 Y58.789 E.05456
G1 X77.489 Y59.963 E.04114
G1 X77.324 Y61.354 E.04875
G1 X76.884 Y62.549 E.04434
G1 X75.793 Y64.307 E.07204
G1 X74.502 Y65.943 E.07255
G1 X73.013 Y67.456 E.07389
G1 X71.444 Y68.74 E.07058
G1 X69.943 Y69.736 E.06273
G1 X68.635 Y70.452 E.05191
G1 X67.098 Y71.135 E.05854
G1 X65.955 Y71.543 E.04225
G1 X64.526 Y71.943 E.05166
G1 X62.773 Y72.277 E.06213
G1 X61.086 Y72.442 E.05901
G1 X59.822 Y72.468 E.04402
G1 X34.997 Y70.961 E.86583
G1 X33.985 Y70.73 E.03614
G1 X32.824 Y70.22 E.04416
G1 X31.857 Y69.536 E.04123
G1 X30.997 Y68.614 E.04389
G1 X30.512 Y67.859 E.03122
G1 X30.159 Y67.086 E.02959
G1 X29.918 Y66.284 E.02915
G1 X29.779 Y65.382 E.03177
G1 X29.779 Y54.63 E.37434
G1 X30.031 Y53.292 E.04741
G1 X30.534 Y52.101 E.04498
G1 X31.251 Y51.073 E.04365
G1 X32.203 Y50.195 E.04509
G1 X32.507 Y50.561 F36000
G1 F1800
G1 X32.742 Y50.366 E.01064
G1 X34.042 Y49.734 E.05032
G1 X35.406 Y49.452 E.0485
G1 X60.31 Y47.989 E.86848
G1 X62.533 Y48.151 E.07762
G1 X64.959 Y48.639 E.08613
G1 X67.31 Y49.444 E.08651
G1 X69.582 Y50.581 E.08847
G1 X71.641 Y51.983 E.08672
G1 X73.464 Y53.613 E.08512
G1 X75.092 Y55.508 E.08699
G1 X76.453 Y57.612 E.08723
G1 X76.909 Y58.881 E.04694
G1 X77.032 Y60.037 E.04048
G1 X76.881 Y61.239 E.04217
G1 X76.43 Y62.433 E.04444
G1 X75.208 Y64.337 E.07877
G1 X73.912 Y65.915 E.07107
G1 X72.333 Y67.448 E.07665
G1 X70.79 Y68.646 E.06799
G1 X69.601 Y69.408 E.04917
G1 X68.043 Y70.231 E.06132
G1 X66.802 Y70.76 E.04698
G1 X65.326 Y71.258 E.05423
G1 X63.981 Y71.598 E.04831
G1 X62.581 Y71.843 E.04946
G1 X61.056 Y71.986 E.05334
G1 X59.716 Y72.01 E.04667
G1 X35.065 Y70.509 E.85975
G1 X33.862 Y70.203 E.04325
G1 X32.845 Y69.701 E.03946
G1 X31.903 Y68.955 E.04184
G1 X31.189 Y68.094 E.03895
G1 X30.547 Y66.814 E.04985
G1 X30.234 Y65.34 E.05245
G1 X30.234 Y54.672 E.37139
G1 X30.47 Y53.42 E.04435
G1 X30.936 Y52.318 E.04168
G1 X31.804 Y51.144 E.0508
G1 X32.461 Y50.599 E.0297
G1 X32.751 Y50.949 F36000
G1 F1800
G1 X32.99 Y50.75 E.01081
G1 X34.181 Y50.169 E.04613
G1 X35.45 Y49.907 E.04509
G1 X60.308 Y48.446 E.8669
G1 X62.467 Y48.603 E.07537
G1 X64.834 Y49.079 E.08406
G1 X67.13 Y49.864 E.08448
G1 X69.345 Y50.972 E.08623
G1 X71.357 Y52.341 E.08471
G1 X73.14 Y53.935 E.08328
G1 X74.724 Y55.778 E.0846
G1 X76.048 Y57.823 E.08481
G1 X76.461 Y58.973 E.04254
G1 X76.575 Y60.037 E.03725
G1 X76.439 Y61.124 E.03815
G1 X76.023 Y62.226 E.04099
G1 X74.837 Y64.07 E.07633
G1 X73.573 Y65.608 E.06931
G1 X72.031 Y67.105 E.07482
G1 X70.327 Y68.409 E.07471
G1 X69.025 Y69.211 E.05323
G1 X67.845 Y69.819 E.0462
G1 X66.644 Y70.332 E.04548
G1 X65.193 Y70.821 E.0533
G1 X63.88 Y71.152 E.04714
G1 X62.525 Y71.389 E.0479
G1 X61.025 Y71.53 E.05243
G1 X59.728 Y71.553 E.04517
G1 X35.134 Y70.057 E.85781
G1 X34.027 Y69.777 E.03974
G1 X33.092 Y69.316 E.03631
G1 X32.226 Y68.632 E.03841
G1 X31.572 Y67.844 E.03566
G1 X30.976 Y66.658 E.0462
G1 X30.689 Y65.298 E.04839
G1 X30.689 Y54.715 E.36844
G1 X30.908 Y53.549 E.0413
G1 X31.339 Y52.534 E.03839
G1 X32.129 Y51.466 E.04625
G1 X32.705 Y50.987 E.02607
; printing object 3DBenchy.stl id:0 copy 0
EXCLUDE_OBJECT_START NAME=3DBenchy.stl_id_0_copy_0
G1 E-.28 F3600
;WIPE_START
G1 F1800
G1 X32.99 Y50.75 E-.02113
G1 X34.181 Y50.169 E-.07553
G1 X34.479 Y50.108 E-.01734
;WIPE_END
G1 E-.006 F3600
G1 Z.4 F36000
G1 X60.185 Y59.211
G1 Z.2
G1 E.4 F3000
;TYPE:Outer wall
G1 F1800
G2 X60.459 Y58.777 I-2.653 J-1.977 E.01789
G3 X61.1 Y58.148 I.913 J.29 E.03255
G3 X61.907 Y58.615 I.085 J.785 E.03473
G3 X61.903 Y59.275 I-1.399 J.32 E.0232
G3 X61.303 Y60.31 I-10.882 J-5.622 E.04165
G2 X61.132 Y60.736 I.593 J.485 E.01624
G1 X61.139 Y60.785 E.00174
G2 X61.642 Y61.674 I14.402 J-7.576 E.03556
G3 X62.027 Y62.444 I-1.824 J1.393 E.03016
G3 X61.008 Y63.419 I-.781 J.203 E.05971
G3 X60.46 Y62.878 I.306 J-.858 E.02767
G2 X60.103 Y62.208 I-1.45 J.342 E.02672
G2 X59.948 Y62.463 I.967 J.762 E.01041
G1 X59.947 Y62.609 E.00508
G2 X59.705 Y63.01 I3.62 J2.461 E.0163
G3 X58.748 Y63.338 I-.654 J-.348 E.03877
G3 X58.35 Y62.627 I.351 J-.664 E.02997
G3 X58.56 Y61.94 I4.06 J.865 E.02503
G1 X58.899 Y61.27 E.02616
G3 X59.243 Y60.767 I88.079 J59.914 E.02122
G3 X58.786 Y60.005 I5.19 J-3.63 E.03097
G3 X58.367 Y59.19 I3.078 J-2.1 E.03198
G3 X58.975 Y58.15 I.714 J-.281 E.04826
G3 X59.241 Y58.14 I.168 J.906 E.00931
G3 X59.8 Y58.53 I-.325 J1.06 E.0241
G2 X60.147 Y59.165 I2.036 J-.701 E.02531
G1 X60.197 Y59.159
G1 E-.28 F3600
;WIPE_START
G1 F1800
G1 X60.34 Y58.992 E-.01478
G1 X60.459 Y58.777 E-.01398
G1 X60.54 Y58.578 E-.01228
G1 X60.611 Y58.475 E-.00712
G1 X60.81 Y58.301 E-.01505
G1 X60.938 Y58.214 E-.00883
G1 X61.1 Y58.148 E-.00997
G1 X61.285 Y58.138 E-.01056
G1 X61.449 Y58.18 E-.00966
G1 X61.591 Y58.255 E-.00915
G1 X61.625 Y58.286 E-.00263
;WIPE_END
G1 E-.006 F3600
G1 Z.4 F36000
G1 X55.577 Y62.902
G1 Z.2
G1 E.4 F3000
G1 F1800
G3 X55.538 Y62.634 I.845 J-.261 E.00946
G3 X56.221 Y61.241 I1.267 J-.243 E.05793
G3 X56.748 Y61.048 I.505 J.561 E.02004
G3 X57.938 Y61.775 I.089 J1.191 E.05185
G3 X58.018 Y62.42 I-2.401 J.624 E.02269
G3 X57.821 Y63.123 I-2.898 J-.433 E.02546
G3 X55.745 Y63.209 I-1.068 J-.664 E.08514
G3 X55.597 Y62.958 I.678 J-.568 E.01021
G1 X55.547 Y62.897
G1 E-.28 F3600
;WIPE_START
G1 F1800
G1 X55.534 Y62.753 E-.01219
G1 X55.538 Y62.634 E-.00681
G1 X55.522 Y62.255 E-.02163
G1 X55.562 Y62.035 E-.01272
G1 X55.638 Y61.83 E-.01249
G1 X55.75 Y61.638 E-.01263
G1 X55.894 Y61.471 E-.01258
G1 X56.064 Y61.332 E-.01255
G1 X56.221 Y61.241 E-.0103
G1 X56.222 Y61.24 E-.0001
;WIPE_END
G1 E-.006 F3600
G1 Z.4 F36000
G1 X51.176 Y63.18
G1 Z.2
G1 E.4 F3000
G1 F1800
G3 X50.766 Y62.373 I.541 J-.782 E.03286
G2 X50.775 Y58.518 I-165.118 J-2.283 E.13421
G2 X50.746 Y57.601 I-4.619 J-.314 E.03199
G3 X50.891 Y57.013 I.787 J-.118 E.02164
G3 X51.726 Y56.684 I.775 J.744 E.0322
G3 X52.154 Y56.698 I.056 J4.792 E.01492
G3 X53.812 Y56.782 I.334 J9.881 E.05787
G3 X55.205 Y57.536 I-.321 J2.257 E.05632
G3 X55.962 Y59.633 I-2.651 J2.142 E.07907
G3 X55.758 Y60.998 I-2.757 J.287 E.04856
G3 X55.055 Y62.364 I-2.819 J-.587 E.05417
G3 X54.178 Y63.046 I-1.387 J-.88 E.03944
G3 X52.645 Y63.234 I-1.331 J-4.502 E.05402
G2 X51.69 Y63.262 I-.34 J4.666 E.03329
G3 X51.231 Y63.204 I-.113 J-.942 E.01628
G1 X51.151 Y63.195
G1 E-.28 F3600
;WIPE_START
G1 F1800
G1 X51.057 Y63.095 E-.01169
G1 X50.907 Y62.902 E-.01395
