; generated by SuperSlicer 2.5.59 on 2023-07-06 at 09:07:31 UTC


;
;

;
;
; 

; external perimeters extrusion width = 0.36mm
; perimeters extrusion width = 0.36mm
; infill extrusion width = 0.50mm
; solid infill extrusion width = 0.50mm
; top infill extrusion width = 0.50mm

; object:{"name":"3DBenchy","id":"3DBenchy.stl id:0 copy 0","object_center":[60.000001,64.060000,0.000000],"boundingbox_center":[60.000001,64.060000,24.000000],"boundingbox_size":[31.004000,60.000999,48.000000]}
; plater:{"center":[60.000001,64.060000,0.000000],"boundingbox_center":[60.000001,64.060000,24.000000],"boundingbox_size":[31.004000,60.000999,48.000000]}

M73 P0 R9
;TYPE:Custom
; custom gcode: start_gcode
PRINT_START BED_TEMP=110 EXTRUDER_TEMP=250 AREA_START=51.9829,38.2758 AREA_END=68.0171,77.1086
; custom gcode end: start_gcode
M107
G21 ; set units to millimeters
G90 ; use absolute coordinates
M83 ; use relative distances for extrusion
; custom gcode: start_filament_gcode
; Filament gcode
SET_PRESSURE_ADVANCE ADVANCE=0.065
; custom gcode end: start_filament_gcode
;_TOOLCHANGE 0
M109 S250 ; set temperature and wait for it to be reached
M190 S110 ; set bed temperature and wait for it to be reached
;LAYER_CHANGE
;Z:0.25
;HEIGHT:0.25
G1 Z0.25 F48000
G92 E0
M73 P3 R9
G1 E-0.3 F2100
; printing object 3DBenchy.stl id:0 copy 0
M204 S50000
G1 X56.617 Y62.391 F48000
G1 E0.3 F1800
;TYPE:Internal perimeter
;WIDTH:0.36
G1 F36000
G1 X56.413 Y62.684 E0.01047
G1 X56.33 Y63.004 E0.00969
G1 X56.337 Y63.288 E0.00833
G1 X56.503 Y63.651 E0.01171
G1 X56.737 Y63.887 E0.00971
G1 X57.151 Y64.179 E0.01484
G1 X56.527 Y64.637 E0.02268
G1 X56.338 Y65.001 E0.01201
G1 X56.309 Y65.382 E0.01118
G1 X56.424 Y65.802 E0.01276
G1 X56.694 Y66.137 E0.0126
G1 X57.013 Y66.297 E0.01046
G1 X57.593 Y66.323 E0.01702
G1 X58.104 Y66.123 E0.01607
G1 X59.278 Y65.437 E0.03984
G1 X60.642 Y66.212 E0.04593
G1 X59.589 Y66.637 E0.03326
G1 X57.978 Y67.233 E0.0503
G1 X57.292 Y67.513 E0.02172
G1 X56.803 Y67.305 E0.01557
G1 X56.09 Y66.999 E0.02272
G1 X55.84 Y66.368 E0.01989
G1 X55.693 Y66.081 E0.00945
G1 X55.355 Y65.812 E0.01263
G1 X54.93 Y65.754 E0.01258
G1 X54.675 Y65.792 E0.00753
G1 X54.361 Y65.913 E0.00987
G1 X54.019 Y66.18 E0.0127
G1 X53.818 Y66.587 E0.01328
G1 X53.791 Y67.004 E0.01226
G1 X53.932 Y67.622 E0.01856
G1 X54.132 Y68.057 E0.01401
G1 X54.422 Y68.416 E0.01353
G1 X54.803 Y68.695 E0.01383
G1 X55.36 Y68.968 E0.01816
G1 X56.548 Y69.435 E0.0374
G1 X59.217 Y70.39 E0.08306
G1 X59.855 Y70.6 E0.01966
G1 X60.41 Y70.84 E0.01771
G1 X60.088 Y71.245 E0.01517
G1 X59.973 Y71.648 E0.01227
G1 X59.938 Y72.096 E0.01316
G1 X58.278 Y70.904 E0.05985
G1 X57.877 Y70.725 E0.01288
G1 X57.307 Y70.677 E0.01676
G1 X56.989 Y70.752 E0.00956
G1 X56.66 Y70.934 E0.011
G1 X56.406 Y71.253 E0.01196
G1 X56.314 Y71.592 E0.01029
G1 X56.34 Y72.297 E0.02068
G1 X56.347 Y73.938 E0.04806
G1 X55.746 Y73.235 E0.02707
G1 X55.258 Y72.608 E0.02328
G1 X54.782 Y71.919 E0.02454
G1 X54.343 Y71.196 E0.02477
G1 X53.941 Y70.439 E0.02512
G1 X53.617 Y69.734 E0.02273
G1 X53.277 Y68.858 E0.02752
G1 X53.038 Y68.109 E0.02303
G1 X52.833 Y67.319 E0.02393
G1 X52.679 Y66.558 E0.02273
G1 X52.566 Y65.771 E0.02329
G1 X52.495 Y64.978 E0.02333
G1 X52.469 Y64.203 E0.0227
G1 X52.488 Y63.39 E0.02384
G1 X53.93 Y39.775 E0.69306
G1 X54.048 Y39.378 E0.01212
G1 X54.28 Y39.07 E0.0113
G1 X54.585 Y38.874 E0.0106
G1 X54.942 Y38.776 E0.01085
G1 X57.827 Y38.773 E0.08452
G1 X57.886 Y39.004 E0.00698
G1 X57.376 Y39.347 E0.018
G1 X57.162 Y39.549 E0.0086
G1 X56.899 Y39.866 E0.01207
G1 X56.683 Y40.222 E0.0122
G1 X56.43 Y40.933 E0.02213
G1 X56.367 Y41.373 E0.01301
G1 X56.361 Y41.845 E0.01383
G1 X56.405 Y42.265 E0.01237
G1 X56.501 Y42.658 E0.01184
G1 X56.707 Y43.113 E0.01462
G1 X57.193 Y43.669 E0.02164
G1 X57.722 Y43.964 E0.01774
G1 X58.029 Y44.03 E0.00918
G1 X58.379 Y43.945 E0.01055
G1 X58.608 Y43.807 E0.00785
G1 X58.944 Y43.361 E0.01635
G1 X59.037 Y43.048 E0.00957
G1 X59.045 Y42.716 E0.00973
G1 X58.963 Y42.41 E0.00929
G1 X58.824 Y42.179 E0.00788
G1 X58.621 Y42.006 E0.00781
G1 X58.54 Y41.804 E0.00638
G1 X58.529 Y41.53 E0.00803
G1 X58.672 Y41.134 E0.01235
G1 X59.025 Y40.862 E0.01305
G1 X59.423 Y40.753 E0.0121
G1 X60.071 Y40.708 E0.01902
G1 X60.47 Y40.73 E0.01171
G1 X60.848 Y40.797 E0.01123
G1 X61.203 Y40.945 E0.01126
G1 X61.49 Y41.307 E0.01354
G1 X61.536 Y41.658 E0.01039
G1 X61.129 Y42.418 E0.02523
G1 X61.025 Y42.748 E0.01014
G1 X61.025 Y43.135 E0.01135
G1 X61.125 Y43.41 E0.00856
G1 X61.338 Y43.688 E0.01026
G1 X61.863 Y44.017 E0.01817
G1 X61.586 Y44.25 E0.01059
G1 X61.416 Y44.552 E0.01015
G1 X61.365 Y44.946 E0.01162
G1 X61.434 Y45.791 E0.02486
G1 X60.865 Y45.756 E0.01669
G1 X58.087 Y45.773 E0.08138
G1 X57.582 Y45.733 E0.01485
G1 X57.281 Y45.747 E0.00884
G1 X56.987 Y45.85 E0.00912
G1 X56.758 Y46.034 E0.00861
G1 X56.556 Y46.395 E0.01211
G1 X56.495 Y46.851 E0.01349
G1 X56.589 Y47.262 E0.01235
G1 X56.786 Y47.543 E0.01005
G1 X57.277 Y47.831 E0.01667
G1 X57.603 Y47.889 E0.00969
G1 X61.41 Y47.872 E0.11153
G1 X61.408 Y48.564 E0.02025
G1 X61.449 Y48.949 E0.01134
G1 X61.546 Y49.26 E0.00955
G1 X61.902 Y49.727 E0.0172
G1 X61.439 Y50.087 E0.0172
G1 X61.099 Y50.685 E0.02013
G1 X60.714 Y50.437 E0.01343
G1 X60.397 Y50.358 E0.00957
G1 X60.045 Y50.364 E0.0103
G1 X59.639 Y50.535 E0.01291
G1 X59.389 Y50.878 E0.01242
G1 X59.301 Y51.178 E0.00916
G1 X59.158 Y51.765 E0.01771
G1 X58.979 Y51.976 E0.00809
G1 X58.745 Y52.093 E0.00768
G1 X58.525 Y52.04 E0.00663
G1 X58.394 Y51.904 E0.00553
G1 X58.769 Y51.383 E0.0188
G1 X58.89 Y51.002 E0.0117
G1 X58.901 Y50.642 E0.01056
G1 X58.79 Y50.231 E0.01248
G1 X58.515 Y49.88 E0.01306
G1 X58.107 Y49.694 E0.01313
G1 X57.742 Y49.674 E0.0107
G1 X57.396 Y49.748 E0.01037
G1 X57.038 Y49.943 E0.01195
G1 X56.611 Y50.49 E0.02033
G1 X56.48 Y50.835 E0.01081
G1 X56.365 Y51.484 E0.0193
G1 X56.381 Y52.229 E0.02181
G1 X56.538 Y52.856 E0.01896
G1 X56.707 Y53.199 E0.01118
G1 X57.121 Y53.705 E0.01916
G1 X57.672 Y54.087 E0.01964
G1 X58.399 Y54.327 E0.02242
G1 X58.364 Y54.604 E0.00816
G1 X57.713 Y54.585 E0.01909
G1 X57.281 Y54.636 E0.01275
G1 X56.889 Y54.805 E0.01249
G1 X56.591 Y55.124 E0.0128
G1 X56.491 Y55.54 E0.01251
G1 X56.537 Y56.105 E0.01661
G1 X56.53 Y56.918 E0.02382
G1 X56.558 Y57.466 E0.0161
G1 X56.623 Y57.922 E0.01348
G1 X56.828 Y58.565 E0.01977
G1 X57.025 Y58.909 E0.01161
G1 X57.327 Y59.287 E0.01417
G1 X56.714 Y59.537 E0.01938
G1 X56.447 Y59.775 E0.01051
G1 X56.251 Y60.047 E0.00981
G1 X56.066 Y60.583 E0.0166
G1 X56.078 Y61.141 E0.01634
G1 X56.161 Y61.424 E0.00865
G1 X56.354 Y61.769 E0.01157
G1 X56.835 Y62.208 E0.01907
G1 X56.617 Y62.391 E0.00831
G1 E-0.3 F2100
G1 X63.887 Y73.65 F48000
G1 E0.3 F1800
G1 F36000
G1 X63.616 Y73.956 E0.01198
G1 X62.828 Y74.728 E0.03235
G1 X62.182 Y75.281 E0.02489
G1 X61.316 Y75.925 E0.03163
G1 X60.369 Y76.52 E0.03274
G1 X60.143 Y76.606 E0.00711
G1 X59.911 Y76.615 E0.00678
G1 X59.659 Y76.536 E0.00774
G1 X59.062 Y76.176 E0.02042
G1 X58.289 Y75.644 E0.02749
G1 X57.644 Y75.151 E0.02378
G1 X58.053 Y74.983 E0.01295
G1 X58.337 Y74.649 E0.01286
G1 X58.462 Y74.237 E0.01261
G1 X58.513 Y73.713 E0.01541
G1 X59.834 Y74.646 E0.0474
G1 X60.321 Y74.953 E0.01685
G1 X60.679 Y75.079 E0.01111
G1 X61.124 Y75.105 E0.01307
G1 X61.527 Y75 E0.01221
G1 X61.782 Y74.835 E0.00888
G1 X61.951 Y74.635 E0.00768
G1 X62.067 Y74.355 E0.0089
G1 X62.105 Y74.046 E0.00912
G1 X62.105 Y71.953 E0.0613
G1 X62.087 Y71.691 E0.0077
G1 X61.932 Y71.192 E0.0153
G1 X61.628 Y70.816 E0.01416
G1 X62 Y70.376 E0.01688
G1 X62.126 Y69.943 E0.01321
G1 X62.008 Y69.512 E0.01312
G1 X61.731 Y69.196 E0.0123
G1 X61.435 Y68.993 E0.01052
G1 X60.712 Y68.709 E0.02274
G1 X60.714 Y68.482 E0.00665
G1 X61.283 Y68.315 E0.01737
G1 X61.645 Y68.137 E0.01181
G1 X61.926 Y67.823 E0.01234
G1 X62.047 Y67.543 E0.00895
G1 X62.106 Y67.082 E0.01361
G1 X62.041 Y66.765 E0.00947
G1 X61.867 Y66.487 E0.00962
G1 X61.483 Y66.191 E0.0142
G1 X61.712 Y66.064 E0.00767
G1 X61.974 Y65.779 E0.01135
G1 X62.116 Y65.381 E0.01239
G1 X62.075 Y65.025 E0.01048
G1 X61.935 Y64.737 E0.00939
G1 X61.406 Y64.223 E0.0216
G1 X61.907 Y63.802 E0.01917
G1 X62.093 Y63.428 E0.01222
G1 X62.098 Y62.983 E0.01306
G1 X61.921 Y62.561 E0.01339
G1 X61.623 Y62.275 E0.01209
G1 X61.36 Y62.165 E0.00835
G1 X61.075 Y62.138 E0.0084
G1 X60.534 Y62.275 E0.01636
G1 X59.49 Y62.855 E0.03498
G1 X59.24 Y63.021 E0.00879
G1 X58.965 Y62.821 E0.00997
G1 X58.176 Y62.362 E0.02673
G1 X58.614 Y62.079 E0.01528
G1 X58.82 Y61.886 E0.00827
G1 X59.114 Y61.411 E0.01638
G1 X59.216 Y60.723 E0.02037
G1 X59.041 Y60.135 E0.01796
G1 X59.433 Y60.229 E0.01179
G1 X59.829 Y60.262 E0.01166
G1 X60.39 Y60.259 E0.01643
G1 X61.061 Y60.176 E0.01982
G1 X61.794 Y59.954 E0.02241
G1 X62.176 Y59.763 E0.01252
G1 X62.612 Y59.451 E0.0157
G1 X62.862 Y59.204 E0.0103
G1 X63.22 Y58.667 E0.01891
G1 X63.424 Y58.051 E0.01902
G1 X63.515 Y57.43 E0.01837
G1 X63.553 Y55.874 E0.0456
G1 X63.518 Y55.421 E0.01331
G1 X63.405 Y55.091 E0.01022
G1 X63.152 Y54.761 E0.01217
G1 X62.801 Y54.588 E0.01147
G1 X62.411 Y54.568 E0.01144
G1 X61.933 Y54.608 E0.01405
G1 X59.158 Y54.604 E0.08129
G1 X59.141 Y54.317 E0.00844
G1 X60.009 Y54.056 E0.02655
G1 X60.414 Y53.798 E0.01407
G1 X60.521 Y53.596 E0.00669
G1 X60.768 Y53.898 E0.01143
G1 X61.247 Y54.055 E0.01476
G1 X61.909 Y54.115 E0.01947
G1 X62.497 Y54.01 E0.0175
G1 X63.1 Y53.617 E0.02107
G1 X63.459 Y53.114 E0.01811
G1 X63.597 Y52.76 E0.01112
G1 X63.697 Y52.234 E0.01569
G1 X63.717 Y51.761 E0.01388
G1 X63.675 Y51.267 E0.01451
G1 X63.586 Y50.875 E0.01178
G1 X63.39 Y50.412 E0.01474
G1 X63.126 Y50.039 E0.01338
G1 X62.836 Y49.813 E0.01078
G1 X63.232 Y49.558 E0.01379
G1 X63.421 Y49.319 E0.00893
G1 X63.51 Y49.088 E0.00726
G1 X63.546 Y48.804 E0.00839
G1 X63.53 Y45.556 E0.09515
G1 X63.576 Y44.864 E0.0203
G1 X63.497 Y44.487 E0.01128
G1 X63.228 Y44.125 E0.01321
G1 X62.69 Y43.84 E0.01784
G1 X63.073 Y43.503 E0.01494
G1 X63.379 Y43.081 E0.01528
G1 X63.58 Y42.623 E0.01464
G1 X63.678 Y42.2 E0.01272
G1 X63.715 Y41.661 E0.01584
G1 X63.669 Y41.078 E0.01712
G1 X63.528 Y40.54 E0.01632
G1 X63.289 Y40.046 E0.01606
G1 X63.042 Y39.699 E0.01247
G1 X62.751 Y39.396 E0.01233
G1 X62.163 Y39 E0.02074
G1 X62.221 Y38.769 E0.007
G1 X64.937 Y38.766 E0.07956
G1 X65.234 Y38.811 E0.0088
G1 X65.718 Y39.069 E0.01607
G1 X66.025 Y39.564 E0.01705
G1 X66.07 Y39.776 E0.00635
G1 X67.513 Y63.405 E0.69347
G1 X67.531 Y64.063 E0.01928
G1 X67.493 Y65.16 E0.03217
G1 X67.413 Y65.947 E0.02315
G1 X67.287 Y66.745 E0.02367
G1 X67.07 Y67.715 E0.02911
G1 X66.814 Y68.588 E0.02666
G1 X66.511 Y69.423 E0.02601
G1 X66.118 Y70.318 E0.02863
G1 X65.714 Y71.097 E0.02572
G1 X65.28 Y71.822 E0.02476
G1 X64.809 Y72.516 E0.02454
G1 X64.239 Y73.252 E0.02728
G1 X63.887 Y73.65 E0.01556
G1 E-0.3 F2100
G1 X61.3 Y65.943 F48000
G1 E0.3 F1800
;TYPE:External perimeter
G1 F36000
G1 X61.52 Y65.82 E0.00735
G1 X61.707 Y65.617 E0.00808
G1 X61.804 Y65.345 E0.00847
G1 X61.777 Y65.112 E0.00687
G1 X61.676 Y64.904 E0.00676
G1 X61.28 Y64.516 E0.01624
G1 X60.731 Y64.248 E0.01789
G1 X61.131 Y64.041 E0.01318
G1 X61.479 Y63.802 E0.01237
G1 X61.654 Y63.622 E0.00735
G1 X61.787 Y63.355 E0.00876
G1 X61.791 Y63.043 E0.00914
G1 X61.663 Y62.738 E0.00968
G1 X61.452 Y62.535 E0.00856
G1 X61.082 Y62.447 E0.01116
G1 X60.658 Y62.556 E0.01282
G1 X59.649 Y63.117 E0.03381
G1 X59.236 Y63.371 E0.01423
G1 X58.797 Y63.078 E0.01546
G1 X57.855 Y62.53 E0.03192
G1 X57.524 Y62.404 E0.01037
G1 X57.23 Y62.379 E0.00865
G1 X56.869 Y62.566 E0.01192
G1 X56.696 Y62.814 E0.00886
G1 X56.637 Y63.039 E0.00682
G1 X56.642 Y63.218 E0.00523
G1 X56.759 Y63.474 E0.00827
G1 X57.234 Y63.863 E0.01798
G1 X57.822 Y64.174 E0.0195
G1 X57.115 Y64.564 E0.02365
G1 X56.773 Y64.828 E0.01266
G1 X56.639 Y65.087 E0.00854
G1 X56.618 Y65.352 E0.0078
G1 X56.702 Y65.66 E0.00933
G1 X56.89 Y65.893 E0.00877
G1 X57.292 Y66.034 E0.01248
G1 X57.721 Y65.969 E0.0127
G1 X57.958 Y65.854 E0.00772
G1 X59.257 Y65.125 E0.04365
G1 X59.572 Y65.213 E0.00957
G1 X60.571 Y65.813 E0.03414
G1 X60.875 Y65.952 E0.00978
G1 X61.3 Y65.943 E0.01247
;WIPE_START
G1 X61.618 Y66.185 F48000
;WIPE_END
G1 E-0.3 F2100
G1 X58.425 Y61.837 F48000
G1 E0.3 F1800
G1 F36000
G1 X58.725 Y61.501 E0.01319
G1 X58.892 Y61.073 E0.01348
G1 X58.864 Y60.515 E0.01634
G1 X58.576 Y60.029 E0.01658
G1 X58.229 Y59.803 E0.01213
G1 X57.776 Y59.61 E0.01441
G1 X57.314 Y59.61 E0.01352
G1 X56.893 Y59.788 E0.0134
G1 X56.518 Y60.201 E0.01633
G1 X56.37 Y60.63 E0.01331
G1 X56.379 Y61.081 E0.01319
G1 X56.605 Y61.59 E0.01632
G1 X56.945 Y61.906 E0.01362
G1 X57.466 Y62.093 E0.01621
G1 X58.02 Y62.049 E0.01627
G1 X58.425 Y61.837 E0.0134
;WIPE_START
G1 X58.8 Y61.976 F48000
;WIPE_END
G1 E-0.3 F2100
G1 X59.301 Y59.883 F48000
G1 E0.3 F1800
G1 F36000
G1 X59.841 Y59.956 E0.01597
G1 X60.37 Y59.952 E0.01551
G1 X61.004 Y59.874 E0.01872
G1 X61.413 Y59.769 E0.01236
G1 X62.018 Y59.5 E0.01939
G1 X62.414 Y59.216 E0.01427
G1 X62.83 Y58.736 E0.01862
G1 X63.059 Y58.237 E0.01608
G1 X63.124 Y57.99 E0.00751
G1 X63.21 Y57.404 E0.01733
G1 X63.246 Y55.882 E0.0446
G1 X63.215 Y55.483 E0.01171
G1 X63.131 Y55.237 E0.00761
G1 X62.952 Y55.004 E0.00861
G1 X62.722 Y54.891 E0.00752
G1 X62.416 Y54.875 E0.00899
G1 X61.945 Y54.914 E0.01382
G1 X58.336 Y54.91 E0.10573
G1 X57.727 Y54.892 E0.01787
G1 X57.361 Y54.935 E0.01079
G1 X57.069 Y55.061 E0.00929
G1 X56.87 Y55.274 E0.00856
G1 X56.8 Y55.564 E0.00872
G1 X56.844 Y56.094 E0.01558
G1 X56.836 Y56.911 E0.02396
G1 X56.863 Y57.437 E0.01541
G1 X56.924 Y57.861 E0.01256
G1 X57.104 Y58.431 E0.01751
G1 X57.438 Y58.934 E0.01769
G1 X57.719 Y59.191 E0.01115
G1 X58.042 Y59.373 E0.01088
G1 X58.864 Y59.778 E0.02682
G1 X59.301 Y59.883 E0.01317
;WIPE_START
G1 X59.415 Y60.266 F48000
;WIPE_END
G1 E-0.3 F2100
G1 X58.774 Y54.053 F48000
G1 E0.3 F1800
G1 F36000
G1 X59.208 Y54 E0.01279
G1 X59.876 Y53.777 E0.02064
G1 X60.181 Y53.583 E0.01059
G1 X60.499 Y52.982 E0.01992
G1 X60.613 Y53.225 E0.00786
G1 X60.948 Y53.635 E0.01551
G1 X61.309 Y53.753 E0.01112
G1 X61.91 Y53.807 E0.01767
G1 X62.122 Y53.789 E0.00623
G1 X62.647 Y53.591 E0.01645
G1 X62.882 Y53.399 E0.00889
G1 X63.182 Y52.981 E0.01507
G1 X63.301 Y52.675 E0.0096
G1 X63.392 Y52.199 E0.01421
G1 X63.411 Y51.767 E0.01265
G1 X63.371 Y51.314 E0.01332
G1 X63.294 Y50.969 E0.01036
G1 X63.121 Y50.562 E0.01296
G1 X62.902 Y50.253 E0.0111
G1 X62.652 Y50.058 E0.00928
G1 X62.257 Y49.983 E0.01178
G1 X61.948 Y50.079 E0.00949
G1 X61.675 Y50.292 E0.01013
G1 X61.511 Y50.581 E0.00974
G1 X61.499 Y50.808 E0.00668
G1 X61.871 Y51.506 E0.02316
G1 X61.94 Y51.741 E0.00718
G1 X61.912 Y51.938 E0.00582
G1 X61.799 Y52.058 E0.00485
G1 X61.569 Y52.109 E0.00689
G1 X61.288 Y51.942 E0.00958
G1 X61.171 Y51.696 E0.00797
G1 X61.093 Y51.236 E0.01365
G1 X60.963 Y50.972 E0.00864
G1 X60.775 Y50.809 E0.00728
G1 X60.362 Y50.665 E0.01283
G1 X60.11 Y50.67 E0.00738
G1 X59.837 Y50.785 E0.00869
G1 X59.668 Y51.016 E0.00838
G1 X59.504 Y51.736 E0.02164
G1 X59.317 Y52.075 E0.01134
G1 X59.021 Y52.317 E0.01118
G1 X58.687 Y52.407 E0.01016
M73 P4 R9
G1 X58.338 Y52.288 E0.01079
G1 X58.209 Y52.154 E0.00545
G1 X58.117 Y51.921 E0.00733
G1 X58.179 Y51.678 E0.00736
G1 X58.491 Y51.244 E0.01566
G1 X58.585 Y50.95 E0.00902
G1 X58.593 Y50.678 E0.00798
G1 X58.511 Y50.371 E0.00932
G1 X58.32 Y50.128 E0.00904
G1 X58.032 Y49.997 E0.00927
G1 X57.504 Y50.038 E0.01553
G1 X57.225 Y50.19 E0.0093
G1 X56.887 Y50.625 E0.01614
G1 X56.701 Y51.251 E0.01912
G1 X56.671 Y51.504 E0.00748
G1 X56.685 Y52.188 E0.02003
G1 X56.822 Y52.74 E0.01667
G1 X57.165 Y53.31 E0.01947
G1 X57.592 Y53.685 E0.01667
G1 X58.23 Y53.976 E0.02054
G1 X58.774 Y54.053 E0.0161
;WIPE_START
G1 X58.993 Y54.388 F48000
;WIPE_END
G1 E-0.3 F2100
G1 X61.998 Y49.347 F48000
G1 E0.3 F1800
G1 F36000
G1 X62.282 Y49.476 E0.00914
G1 X62.582 Y49.497 E0.00881
G1 X62.876 Y49.423 E0.00887
G1 X63.023 Y49.328 E0.00514
G1 X63.211 Y49.013 E0.01073
G1 X63.239 Y48.785 E0.00672
G1 X63.224 Y45.546 E0.09489
G1 X63.268 Y44.886 E0.01939
G1 X63.211 Y44.616 E0.00808
G1 X63.024 Y44.364 E0.00921
G1 X62.73 Y44.208 E0.00973
G1 X62.407 Y44.176 E0.00952
G1 X62.005 Y44.299 E0.01232
G1 X61.826 Y44.449 E0.00684
G1 X61.712 Y44.651 E0.00678
G1 X61.674 Y44.948 E0.00878
G1 X61.75 Y45.607 E0.01943
G1 X61.738 Y45.848 E0.00708
G1 X61.584 Y46.067 E0.00784
G1 X60.857 Y46.062 E0.02131
G1 X58.076 Y46.079 E0.08146
