; HEADER_BLOCK_START
; generated by OrcaSlicer 1.6.2 on 2023-07-08 at 15:24:14
; total layer number: 1
; HEADER_BLOCK_END

; THUMBNAIL_BLOCK_START
; THUMBNAIL_BLOCK_END

; external perimeters extrusion width = 0.50mm
; perimeters extrusion width = 0.50mm
; infill extrusion width = 0.50mm
; solid infill extrusion width = 0.50mm
; top infill extrusion width = 0.40mm
; first layer extrusion width = 0.50mm

; external perimeters extrusion width = 0.50mm
; perimeters extrusion width = 0.50mm
; infill extrusion width = 0.50mm
; solid infill extrusion width = 0.50mm
; top infill extrusion width = 0.40mm
; first layer extrusion width = 0.50mm

; EXECUTABLE_BLOCK_START
EXCLUDE_OBJECT_DEFINE NAME=Cylinder_id_0_copy_0 CENTER=60,60 POLYGON=[[54,60],[54.0009,59.8953],[54.0037,59.7906],[54.0082,59.686],[54.0146,59.5815],[54.0228,59.4771],[54.0329,59.3728],[54.0447,59.2688],[54.0584,59.165],[54.0739,59.0614],[54.0912,58.9581],[54.1102,58.8551],[54.1311,58.7525],[54.1538,58.6503],[54.1782,58.5485],[54.2044,58.4471],[54.2324,58.3462],[54.2622,58.2458],[54.2937,58.1459],[54.3269,58.0466],[54.3618,57.9479],[54.3985,57.8498],[54.4369,57.7524],[54.477,57.6556],[54.5187,57.5596],[54.5622,57.4643],[54.6072,57.3698],[54.654,57.2761],[54.7023,57.1832],[54.7523,57.0911],[54.8038,57],[54.857,56.9098],[54.9117,56.8205],[54.968,56.7322],[55.0258,56.6448],[55.0851,56.5585],[55.1459,56.4733],[55.2082,56.3891],[55.2719,56.306],[55.3371,56.2241],[55.4037,56.1433],[55.4717,56.0636],[55.5411,55.9852],[55.6119,55.908],[55.684,55.832],[55.7574,55.7574],[55.832,55.684],[55.908,55.6119],[55.9852,55.5411],[56.0636,55.4717],[56.1433,55.4037],[56.2241,55.3371],[56.306,55.2719],[56.3891,55.2082],[56.4733,55.1459],[56.5585,55.0851],[56.6448,55.0258],[56.7322,54.968],[56.8205,54.9117],[56.9098,54.857],[57,54.8038],[57.0911,54.7523],[57.1832,54.7023],[57.2761,54.654],[57.3698,54.6072],[57.4643,54.5622],[57.5596,54.5187],[57.6556,54.477],[57.7524,54.4369],[57.8498,54.3985],[57.9479,54.3618],[58.0466,54.3269],[58.1459,54.2937],[58.2458,54.2622],[58.3462,54.2324],[58.4471,54.2044],[58.5485,54.1782],[58.6503,54.1538],[58.7525,54.1311],[58.8551,54.1102],[58.9581,54.0912],[59.0614,54.0739],[59.165,54.0584],[59.2688,54.0447],[59.3728,54.0329],[59.4771,54.0228],[59.5815,54.0146],[59.686,54.0082],[59.7906,54.0037],[59.8953,54.0009],[60,54],[60.1047,54.0009],[60.2094,54.0037],[60.314,54.0082],[60.4185,54.0146],[60.5229,54.0228],[60.6272,54.0329],[60.7312,54.0447],[60.835,54.0584],[60.9386,54.0739],[61.0419,54.0912],[61.1449,54.1102],[61.2475,54.1311],[61.3497,54.1538],[61.4515,54.1782],[61.5529,54.2044],[61.6538,54.2324],[61.7542,54.2622],[61.8541,54.2937],[61.9534,54.3269],[62.0521,54.3618],[62.1502,54.3985],[62.2476,54.4369],[62.3444,54.477],[62.4404,54.5187],[62.5357,54.5622],[62.6302,54.6072],[62.7239,54.654],[62.8168,54.7023],[62.9089,54.7523],[63,54.8038],[63.0902,54.857],[63.1795,54.9117],[63.2678,54.968],[63.3552,55.0258],[63.4415,55.0851],[63.5267,55.1459],[63.6109,55.2082],[63.694,55.2719],[63.7759,55.3371],[63.8567,55.4037],[63.9364,55.4717],[64.0148,55.5411],[64.092,55.6119],[64.1679,55.684],[64.2426,55.7574],[64.316,55.832],[64.3881,55.908],[64.4589,55.9852],[64.5283,56.0636],[64.5963,56.1433],[64.6629,56.2241],[64.7281,56.306],[64.7918,56.3891],[64.8541,56.4733],[64.9149,56.5585],[64.9742,56.6448],[65.032,56.7322],[65.0883,56.8205],[65.143,56.9098],[65.1962,57],[65.2477,57.0911],[65.2977,57.1832],[65.346,57.2761],[65.3928,57.3698],[65.4378,57.4643],[65.4813,57.5596],[65.523,57.6556],[65.5631,57.7524],[65.6015,57.8498],[65.6382,57.9479],[65.6731,58.0466],[65.7063,58.1459],[65.7378,58.2458],[65.7676,58.3462],[65.7956,58.4471],[65.8218,58.5485],[65.8462,58.6503],[65.8689,58.7525],[65.8898,58.8551],[65.9088,58.9581],[65.9261,59.0614],[65.9416,59.165],[65.9553,59.2688],[65.9671,59.3728],[65.9772,59.4771],[65.9854,59.5815],[65.9918,59.686],[65.9963,59.7906],[65.9991,59.8953],[66,60],[65.9991,60.1047],[65.9963,60.2094],[65.9918,60.314],[65.9854,60.4185],[65.9772,60.5229],[65.9671,60.6272],[65.9553,60.7312],[65.9416,60.835],[65.9261,60.9386],[65.9088,61.0419],[65.8898,61.1449],[65.8689,61.2475],[65.8462,61.3497],[65.8218,61.4515],[65.7956,61.5529],[65.7676,61.6538],[65.7378,61.7542],[65.7063,61.8541],[65.6731,61.9534],[65.6382,62.0521],[65.6015,62.1502],[65.5631,62.2476],[65.523,62.3444],[65.4813,62.4404],[65.4378,62.5357],[65.3928,62.6302],[65.346,62.7239],[65.2977,62.8168],[65.2477,62.9089],[65.1962,63],[65.143,63.0902],[65.0883,63.1795],[65.032,63.2678],[64.9742,63.3552],[64.9149,63.4415],[64.8541,63.5267],[64.7918,63.6109],[64.7281,63.694],[64.6629,63.7759],[64.5963,63.8567],[64.5283,63.9364],[64.4589,64.0148],[64.3881,64.092],[64.316,64.1679],[64.2426,64.2426],[64.1679,64.316],[64.092,64.3881],[64.0148,64.4589],[63.9364,64.5283],[63.8567,64.5963],[63.7759,64.6629],[63.694,64.7281],[63.6109,64.7918],[63.5267,64.8541],[63.4415,64.9149],[63.3552,64.9742],[63.2678,65.032],[63.1795,65.0883],[63.0902,65.143],[63,65.1962],[62.9089,65.2477],[62.8168,65.2977],[62.7239,65.346],[62.6302,65.3928],[62.5357,65.4378],[62.4404,65.4813],[62.3444,65.523],[62.2476,65.5631],[62.1502,65.6015],[62.0521,65.6382],[61.9534,65.6731],[61.8541,65.7063],[61.7542,65.7378],[61.6538,65.7676],[61.5529,65.7956],[61.4515,65.8218],[61.3497,65.8462],[61.2475,65.8689],[61.1449,65.8898],[61.0419,65.9088],[60.9386,65.9261],[60.835,65.9416],[60.7312,65.9553],[60.6272,65.9671],[60.5229,65.9772],[60.4185,65.9854],[60.314,65.9918],[60.2094,65.9963],[60.1047,65.9991],[60,66],[59.8953,65.9991],[59.7906,65.9963],[59.686,65.9918],[59.5815,65.9854],[59.4771,65.9772],[59.3728,65.9671],[59.2688,65.9553],[59.165,65.9416],[59.0614,65.9261],[58.9581,65.9088],[58.8551,65.8898],[58.7525,65.8689],[58.6503,65.8462],[58.5485,65.8218],[58.4471,65.7956],[58.3462,65.7676],[58.2458,65.7378],[58.1459,65.7063],[58.0466,65.6731],[57.9479,65.6382],[57.8498,65.6015],[57.7524,65.5631],[57.6556,65.523],[57.5596,65.4813],[57.4643,65.4378],[57.3698,65.3928],[57.2761,65.346],[57.1832,65.2977],[57.0911,65.2477],[57,65.1962],[56.9098,65.143],[56.8205,65.0883],[56.7322,65.032],[56.6448,64.9742],[56.5585,64.9149],[56.4733,64.8541],[56.3891,64.7918],[56.306,64.7281],[56.2241,64.6629],[56.1433,64.5963],[56.0636,64.5283],[55.9852,64.4589],[55.908,64.3881],[55.832,64.316],[55.7574,64.2426],[55.684,64.1679],[55.6119,64.092],[55.5411,64.0148],[55.4717,63.9364],[55.4037,63.8567],[55.3371,63.7759],[55.2719,63.694],[55.2082,63.6109],[55.1459,63.5267],[55.0851,63.4415],[55.0258,63.3552],[54.968,63.2678],[54.9117,63.1795],[54.857,63.0902],[54.8038,63],[54.7523,62.9089],[54.7023,62.8168],[54.654,62.7239],[54.6072,62.6302],[54.5622,62.5357],[54.5187,62.4404],[54.477,62.3444],[54.4369,62.2476],[54.3985,62.1502],[54.3618,62.0521],[54.3269,61.9534],[54.2937,61.8541],[54.2622,61.7542],[54.2324,61.6538],[54.2044,61.5529],[54.1782,61.4515],[54.1538,61.3497],[54.1311,61.2475],[54.1102,61.1449],[54.0912,61.0419],[54.0739,60.9386],[54.0584,60.835],[54.0447,60.7312],[54.0329,60.6272],[54.0228,60.5229],[54.0146,60.4185],[54.0082,60.314],[54.0037,60.2094],[54.0009,60.1047],[54,60]]
EXCLUDE_OBJECT_DEFINE NAME=Assembly_id_1_copy_0 CENTER=80.9397,62.437 POLYGON=[[74.7867,65.2122],[74.7876,65.1074],[74.7904,65.0028],[74.795,64.8981],[75.1009,59.3478],[75.1073,59.2432],[75.1155,59.1388],[75.1255,59.0346],[75.1374,58.9306],[75.1511,58.8267],[75.1665,58.7232],[75.1838,58.6199],[75.2029,58.5169],[75.2238,58.4143],[75.2465,58.3121],[75.2709,58.2102],[75.2971,58.1089],[75.3251,58.0079],[75.3548,57.9075],[75.3863,57.8077],[75.4196,57.7084],[75.4545,57.6096],[75.4912,57.5116],[75.5296,57.4141],[75.5696,57.3174],[75.6114,57.2213],[75.6548,57.1261],[75.6999,57.0315],[75.7466,56.9378],[75.795,56.8449],[75.845,56.7529],[75.8965,56.6618],[75.9497,56.5715],[76.0044,56.4823],[76.0607,56.3939],[76.1184,56.3066],[76.1778,56.2203],[76.2386,56.1351],[76.3009,56.0509],[76.3646,55.9678],[76.4298,55.8858],[76.4964,55.805],[76.5644,55.7254],[76.6338,55.647],[76.7046,55.5698],[76.7766,55.4938],[76.85,55.4191],[76.9247,55.3457],[77.0007,55.2736],[77.0779,55.2029],[77.1563,55.1335],[77.2359,55.0655],[77.3168,54.9989],[77.3987,54.9337],[77.4818,54.87],[77.566,54.8077],[77.6512,54.7469],[77.7375,54.6875],[77.8248,54.6297],[77.9132,54.5735],[78.0024,54.5188],[78.0927,54.4656],[78.1838,54.4141],[78.2758,54.3641],[78.3687,54.3157],[78.4624,54.269],[78.557,54.2239],[78.6523,54.1805],[78.7483,54.1387],[78.845,54.0987],[78.9425,54.0603],[79.0406,54.0236],[79.1393,53.9887],[79.2386,53.9554],[79.3384,53.9239],[79.4389,53.8942],[79.5398,53.8662],[79.6411,53.84],[79.743,53.8155],[79.8452,53.7929],[79.9478,53.772],[80.0508,53.7529],[80.1541,53.7356],[80.2576,53.7202],[80.3615,53.7065],[80.4655,53.6946],[80.5697,53.6846],[80.6741,53.6764],[80.7787,53.67],[80.8833,53.6654],[80.988,53.6627],[81.0927,53.6618],[81.1974,53.6627],[81.3021,53.6654],[81.4067,53.67],[81.5112,53.6764],[81.6156,53.6846],[81.7198,53.6946],[81.8239,53.7065],[81.9277,53.7202],[82.0313,53.7356],[82.1346,53.7529],[82.2375,53.772],[82.3401,53.7929],[82.4424,53.8155],[82.5442,53.84],[82.6456,53.8662],[82.7465,53.8942],[82.8469,53.9239],[82.9468,53.9554],[83.0461,53.9887],[83.1448,54.0236],[83.2429,54.0603],[83.3403,54.0987],[83.4371,54.1387],[83.5331,54.1805],[83.6284,54.2239],[83.7229,54.269],[83.8166,54.3157],[83.9095,54.3641],[84.0015,54.4141],[84.0927,54.4656],[84.1829,54.5188],[84.2722,54.5735],[84.3605,54.6297],[84.4478,54.6875],[84.5341,54.7469],[84.6194,54.8077],[84.7036,54.87],[84.7866,54.9337],[84.8686,54.9989],[84.9494,55.0655],[85.029,55.1335],[85.1075,55.2029],[85.1847,55.2736],[85.2606,55.3457],[85.3353,55.4191],[85.4087,55.4938],[85.4808,55.5698],[85.5515,55.647],[85.6209,55.7254],[85.6889,55.805],[85.7555,55.8858],[85.8207,55.9678],[85.8845,56.0509],[85.9468,56.1351],[86.0076,56.2203],[86.0669,56.3066],[86.1247,56.3939],[86.181,56.4823],[86.2357,56.5715],[86.2888,56.6618],[86.3404,56.7529],[86.3904,56.8449],[86.4387,56.9378],[86.4854,57.0315],[86.5305,57.1261],[86.5739,57.2213],[86.6157,57.3174],[86.6558,57.4141],[86.6942,57.5116],[86.7308,57.6096],[86.7658,57.7084],[86.799,57.8077],[86.8305,57.9075],[86.8602,58.0079],[86.8882,58.1089],[86.9144,58.2102],[86.9389,58.3121],[86.9616,58.4143],[86.9824,58.5169],[87.0015,58.6199],[87.0188,58.7232],[87.0343,58.8267],[87.048,58.9306],[87.0598,59.0346],[87.0698,59.1388],[87.0781,59.2432],[87.0844,59.3478],[87.089,59.4524],[87.0918,59.5571],[87.0927,59.6618],[87.0918,59.7665],[87.089,59.8712],[87.0844,59.9758],[86.7785,65.5262],[86.7721,65.6307],[86.7639,65.7351],[86.7539,65.8393],[86.742,65.9434],[86.7283,66.0472],[86.7129,66.1508],[86.6956,66.254],[86.6765,66.357],[86.6556,66.4596],[86.6329,66.5619],[86.6085,66.6637],[86.5823,66.7651],[86.5543,66.866],[86.5246,66.9664],[86.4931,67.0663],[86.4598,67.1656],[86.4249,67.2643],[86.3882,67.3624],[86.3498,67.4598],[86.3098,67.5565],[86.268,67.6526],[86.2246,67.7479],[86.1795,67.8424],[86.1328,67.9361],[86.0844,68.029],[86.0344,68.121],[85.9829,68.2122],[85.9297,68.3024],[85.875,68.3917],[85.8188,68.48],[85.761,68.5673],[85.7016,68.6536],[85.6408,68.7389],[85.5785,68.823],[85.5148,68.9061],[85.4496,68.9881],[85.383,69.0689],[85.315,69.1485],[85.2456,69.2269],[85.1748,69.3041],[85.1028,69.3801],[85.0294,69.4548],[84.9547,69.5282],[84.8787,69.6003],[84.8015,69.671],[84.7231,69.7404],[84.6435,69.8084],[84.5626,69.875],[84.4807,69.9402],[84.3976,70.004],[84.3134,70.0663],[84.2282,70.1271],[84.1419,70.1864],[84.0546,70.2442],[83.9662,70.3004],[83.877,70.3552],[83.7867,70.4083],[83.6956,70.4599],[83.6036,70.5098],[83.5107,70.5582],[83.417,70.6049],[83.3224,70.65],[83.2271,70.6934],[83.1311,70.7352],[83.0344,70.7753],[82.9369,70.8136],[82.8389,70.8503],[82.7401,70.8853],[82.6408,70.9185],[82.541,70.95],[82.4406,70.9797],[82.3396,71.0077],[82.2383,71.0339],[82.1364,71.0584],[82.0342,71.081],[81.9316,71.1019],[81.8286,71.121],[81.7253,71.1383],[81.6218,71.1538],[81.5179,71.1674],[81.4139,71.1793],[81.3097,71.1893],[81.2053,71.1975],[81.1007,71.2039],[80.9961,71.2085],[80.8914,71.2112],[80.7867,71.2122],[80.682,71.2112],[80.5773,71.2085],[80.4727,71.2039],[80.3682,71.1975],[80.2638,71.1893],[80.1596,71.1793],[80.0555,71.1674],[79.9517,71.1538],[79.8481,71.1383],[79.7448,71.121],[79.6419,71.1019],[79.5393,71.081],[79.437,71.0584],[79.3352,71.0339],[79.2338,71.0077],[79.1329,70.9797],[79.0325,70.95],[78.9326,70.9185],[78.8333,70.8853],[78.7346,70.8503],[78.6365,70.8136],[78.5391,70.7753],[78.4423,70.7352],[78.3463,70.6934],[78.251,70.65],[78.1565,70.6049],[78.0628,70.5582],[77.9699,70.5098],[77.8779,70.4599],[77.7867,70.4083],[77.6965,70.3552],[77.6072,70.3004],[77.5189,70.2442],[77.4316,70.1864],[77.3453,70.1271],[77.26,70.0663],[77.1758,70.004],[77.0928,69.9402],[77.0108,69.875],[76.93,69.8084],[76.8504,69.7404],[76.7719,69.671],[76.6947,69.6003],[76.6188,69.5282],[76.5441,69.4548],[76.4707,69.3801],[76.3986,69.3041],[76.3279,69.2269],[76.2585,69.1485],[76.1905,69.0689],[76.1239,68.9881],[76.0587,68.9061],[75.9949,68.823],[75.9326,68.7389],[75.8718,68.6536],[75.8125,68.5673],[75.7547,68.48],[75.6984,68.3917],[75.6437,68.3024],[75.5906,68.2122],[75.539,68.121],[75.489,68.029],[75.4407,67.9361],[75.394,67.8424],[75.3489,67.7479],[75.3055,67.6526],[75.2637,67.5565],[75.2236,67.4598],[75.1852,67.3624],[75.1486,67.2643],[75.1136,67.1656],[75.0804,67.0663],[75.0489,66.9664],[75.0192,66.866],[74.9912,66.7651],[74.965,66.6637],[74.9405,66.5619],[74.9178,66.4596],[74.897,66.357],[74.8779,66.254],[74.8606,66.1508],[74.8451,66.0472],[74.8315,65.9434],[74.8196,65.8393],[74.8096,65.7351],[74.8013,65.6307],[74.795,65.5262],[74.7904,65.4216],[74.7876,65.3169],[74.7867,65.2122]]
M73 P0 R0
;TYPE:Custom
PRINT_START EXTRUDER_TEMP=220 BED_TEMP=60 AREA_START=49.4013,49.0631 AREA_END=91.6914,75.8108
G90
G21
M83 ; use relative distances for extrusion
; filament start gcode
M106 S0
;LAYER_CHANGE
;Z:0.2
;HEIGHT:0.2
;BEFORE_LAYER_CHANGE
;0.2
G92 E0

G1 E-.4 F3600
G1 Z.2 F36000
;AFTER_LAYER_CHANGE
;0.2
M204 S2000
G1 X52.879 Y52.461
M73 P1 R0
G1 E.4 F3000
;TYPE:Skirt
;WIDTH:0.5
G1 F1800
G1 X53.706 Y51.758 E.03795
G1 X55.394 Y50.709 E.06951
G1 X56.391 Y50.278 E.03795
M73 P2 R0
G1 X57.427 Y49.954 E.03796
G1 X58.623 Y49.721 E.0426
G1 X59.539 Y49.64 E.03217
G1 X81.388 Y49.296 E.76407
M73 P5 R0
G1 X83.137 Y49.495 E.06154
G1 X84.747 Y49.957 E.05857
G1 X86.491 Y50.807 E.06784
G1 X87.846 Y51.792 E.05857
M73 P6 R0
G1 X88.994 Y52.945 E.0569
G1 X90.107 Y54.534 E.06784
G1 X90.815 Y56.052 E.05857
G1 X91.325 Y57.974 E.06951
G1 X91.459 Y59.957 E.06951
M73 P7 R0
G1 X91.137 Y65.871 E.2071
G1 X90.906 Y67.48 E.05683
M73 P8 R0
G1 X90.509 Y68.822 E.04892
G1 X89.641 Y70.61 E.06951
G1 X88.423 Y72.229 E.07084
G1 X87.081 Y73.454 E.06355
M73 P9 R0
G1 X85.393 Y74.504 E.06951
G1 X83.919 Y75.099 E.05557
G1 X82.164 Y75.491 E.06287
G1 X80.72 Y75.582 E.05059
G1 X79.052 Y75.436 E.05857
M73 P10 R0
G1 X57.206 Y69.987 E.78727
M73 P12 R0
G1 X56.177 Y69.64 E.03796
M73 P13 R0
G1 X55.224 Y69.206 E.03662
G1 X54.146 Y68.56 E.04393
G1 X53.283 Y67.901 E.03796
G1 X51.899 Y66.474 E.06951
G1 X51.241 Y65.552 E.03963
G1 X50.725 Y64.64 E.03662
M73 P14 R0
G1 X50.281 Y63.619 E.03895
G1 X49.966 Y62.62 E.03663
G1 X49.66 Y60.79 E.06487
G1 X49.634 Y59.705 E.03796
G1 X49.719 Y58.638 E.03742
G1 X50.173 Y56.687 E.07004
M73 P15 R0
G1 X50.986 Y54.873 E.06951
G1 X51.571 Y53.958 E.03796
G1 X52.174 Y53.196 E.034
G1 X52.837 Y52.504 E.03349
G1 X53.167 Y52.82 F36000
G1 F1800
G1 X53.188 Y52.798 E.00106
G1 X53.978 Y52.126 E.03628
G1 X55.591 Y51.121 E.06645
M73 P16 R0
G1 X56.543 Y50.709 E.03628
G1 X57.533 Y50.398 E.03628
G1 X58.69 Y50.174 E.04121
G1 X59.565 Y50.096 E.03072
G1 X81.368 Y49.752 E.76245
M73 P19 R0
G1 X83.053 Y49.944 E.05931
G1 X84.579 Y50.382 E.0555
G1 X86.259 Y51.201 E.06534
M73 P20 R0
G1 X87.543 Y52.134 E.0555
G1 X88.641 Y53.236 E.05439
G1 X89.713 Y54.766 E.06533
G1 X90.384 Y56.205 E.05551
G1 X90.873 Y58.041 E.06645
M73 P21 R0
G1 X91.002 Y59.937 E.06644
G1 X90.68 Y65.846 E.20692
M73 P22 R0
G1 X90.504 Y67.173 E.0468
G1 X90.183 Y68.373 E.04344
G1 X89.407 Y70.108 E.06645
G1 X88.848 Y70.982 E.03628
