; HEADER_BLOCK_START
; generated by OrcaSlicer 1.6.2 on 2023-07-09 at 13:52:14
; total layer number: 154
; HEADER_BLOCK_END

; THUMBNAIL_BLOCK_START
; THUMBNAIL_BLOCK_END

; external perimeters extrusion width = 0.50mm
; perimeters extrusion width = 0.50mm
; infill extrusion width = 0.50mm
; solid infill extrusion width = 0.50mm
; top infill extrusion width = 0.40mm
; first layer extrusion width = 0.50mm

; EXECUTABLE_BLOCK_START
EXCLUDE_OBJECT_DEFINE NAME=v0.2_extended_feet_special.stl_id_0_copy_0 CENTER=58.9554,58.4958 POLYGON=[[40.2856,58.2107],[58.6703,39.8259],[59.236,39.8259],[77.6253,58.2152],[77.6253,58.7809],[59.2405,77.1657],[58.6748,77.1657],[40.2856,58.7764],[40.2856,58.2107]]
M73 P0 R52
;TYPE:Custom
PRINT_START EXTRUDER_TEMP=260 BED_TEMP=120 AREA_START=35.8858,35.4262 AREA_END=82.0251,81.5655
G90
G21
M83 ; use relative distances for extrusion
; Filament gcode
SET_PRESSURE_ADVANCE ADVANCE=0.065
M106 S0
;LAYER_CHANGE
;Z:0.2
;HEIGHT:0.2
;BEFORE_LAYER_CHANGE
;0.2
G92 E0

G1 E-.4 F3600
G1 Z.2 F36000
;AFTER_LAYER_CHANGE
;0.2
M204 S2000
G1 X46.299 Y46.299
G1 E.4 F3000
;TYPE:Skirt
;WIDTH:0.5
G1 F1800
G1 X55.662 Y36.935 E.46101
G1 X57.226 Y35.93 E.06473
G1 X58.753 Y35.655 E.05401
G1 X59.153 Y35.655 E.01393
G1 X60.97 Y36.05 E.06473
G1 X62.244 Y36.935 E.05401
G1 X80.516 Y55.207 E.89961
G1 X81.521 Y56.771 E.06473
G1 X81.797 Y58.298 E.05401
G1 X81.797 Y58.698 E.01393
G1 X81.401 Y60.515 E.06473
G1 X80.516 Y61.789 E.05401
G1 X62.249 Y80.057 E.89939
G1 X60.684 Y81.062 E.06473
G1 X59.158 Y81.337 E.05401
G1 X58.758 Y81.337 E.01393
G1 X56.941 Y80.941 E.06473
G1 X55.667 Y80.057 E.05401
G1 X37.395 Y61.784 E.89961
G1 X36.39 Y60.22 E.06473
G1 X36.114 Y58.694 E.05401
G1 X36.114 Y58.294 E.01393
G1 X36.51 Y56.477 E.06473
G1 X37.395 Y55.203 E.05401
G1 X46.256 Y46.341 E.43629
G1 X46.579 Y46.664 F36000
G1 F1800
G1 X55.985 Y37.258 E.4631
G1 X57.476 Y36.326 E.06121
G1 X58.753 Y36.112 E.04508
G1 X59.153 Y36.112 E.01393
G1 X60.866 Y36.507 E.06121
G1 X61.921 Y37.258 E.04508
G1 X80.193 Y55.53 E.89961
G1 X81.125 Y57.021 E.06121
G1 X81.339 Y58.298 E.04508
G1 X81.339 Y58.698 E.01393
G1 X80.945 Y60.411 E.06121
G1 X80.193 Y61.466 E.04508
G1 X61.925 Y79.733 E.89939
G1 X60.435 Y80.666 E.06121
G1 X59.158 Y80.88 E.04508
G1 X58.758 Y80.88 E.01393
G1 X57.044 Y80.485 E.06121
G1 X55.99 Y79.733 E.04508
G1 X37.718 Y61.461 E.89961
G1 X36.786 Y59.971 E.06121
G1 X36.571 Y58.694 E.04508
G1 X36.571 Y58.294 E.01393
G1 X36.966 Y56.58 E.06121
G1 X37.718 Y55.526 E.04508
G1 X46.537 Y46.707 E.4342
G1 X46.86 Y47.03 F36000
G1 F1800
G1 X56.309 Y37.581 E.46519
G1 X57.721 Y36.727 E.05748
G1 X58.753 Y36.569 E.03635
G1 X59.153 Y36.569 E.01393
G1 X60.756 Y36.963 E.05748
G1 X61.598 Y37.581 E.03635
G1 X79.87 Y55.854 E.89961
G1 X80.725 Y57.266 E.05748
G1 X80.882 Y58.698 E.05016
G1 X80.488 Y60.301 E.05748
G1 X79.87 Y61.143 E.03635
G1 X61.602 Y79.41 E.89939
G1 X60.19 Y80.265 E.05748
G1 X58.758 Y80.423 E.05016
G1 X57.154 Y80.029 E.05748
G1 X56.313 Y79.41 E.03635
G1 X38.041 Y61.138 E.89961
G1 X37.186 Y59.726 E.05748
G1 X37.028 Y58.294 E.05016
G1 X37.423 Y56.69 E.05748
G1 X38.041 Y55.849 E.03635
G1 X46.818 Y47.072 E.43211
; printing object v0.2_extended_feet_special.stl id:0 copy 0
EXCLUDE_OBJECT_START NAME=v0.2_extended_feet_special.stl_id_0_copy_0
G1 E-.28 F3600
;WIPE_START
G1 F1800
G1 X48.232 Y45.658 E-.114
;WIPE_END
G1 E-.006 F3600
G1 Z.4 F36000
G1 X63.487 Y54.873
G1 Z.2
G1 E.4 F3000
;TYPE:Inner wall
G1 F1800
G1 X63.783 Y54.884 E.01031
G3 X63.155 Y54.885 I-.313 J3.607 E.77008
G1 X63.427 Y54.871 E.00948
G1 X63.47 Y55.33 F36000
G1 F1800
G1 X63.742 Y55.34 E.00948
G3 X63.196 Y55.34 I-.273 J3.151 E.67289
G1 X63.41 Y55.33 E.00748
G1 X63.454 Y55.787 F36000
G1 F1800
G1 X63.702 Y55.796 E.00865
G3 X63.237 Y55.796 I-.233 J2.696 E.57569
G1 X63.394 Y55.788 E.00548
G1 X63.307 Y56.25 F36000
;TYPE:Outer wall
G1 F1800
G1 X63.438 Y56.244 E.00457
G3 X63.247 Y56.254 I.03 J2.248 E.48523
G1 X63.317 Y56.226
G1 E-.28 F3600
;WIPE_START
G1 F1800
G1 X63.438 Y56.244 E-.0109
G1 X63.886 Y56.283 E-.02564
G1 X64.319 Y56.413 E-.02578
G1 X64.718 Y56.626 E-.02579
G1 X65.066 Y56.915 E-.02578
G1 X65.067 Y56.917 E-.0001
;WIPE_END
G1 E-.006 F3600
G1 Z.4 F36000
G1 X45.622 Y57.942
G1 Z.2
G1 E.4 F3000
;TYPE:Inner wall
G1 F1800
G1 X45.636 Y57.875 E.00238
G3 X50.373 Y53.479 I4.982 J.619 E.24442
G3 X51.279 Y53.516 I.213 J5.788 E.0316
G3 X45.599 Y58.396 I-.661 J4.977 E.80397
G1 X45.619 Y58.002 E.01376
G1 X46.077 Y57.978 F36000
G1 F1800
G1 X46.09 Y57.934 E.00161
G3 X50.397 Y53.935 I4.527 J.557 E.22233
G3 X51.218 Y53.97 I.188 J5.3 E.02863
G3 X46.057 Y58.405 I-.601 J4.521 E.73021
G1 X46.074 Y58.038 E.01278
G1 X46.532 Y58.015 F36000
G1 F1800
G1 X46.542 Y57.993 E.00082
G3 X50.421 Y54.392 I4.074 J.498 E.20029
G3 X51.157 Y54.423 I.163 J4.814 E.02566
G3 X46.512 Y58.414 I-.542 J4.068 E.65703
G1 X46.529 Y58.074 E.01183
G1 X47.017 Y57.889 F36000
;TYPE:Outer wall
G1 F1800
G1 X47.08 Y57.595 E.01047
G3 X50.445 Y54.848 I3.537 J.897 E.16199
G3 X50.818 Y54.85 I.173 J3.19 E.01297
G3 X46.995 Y58.052 I-.201 J3.643 E.60698
G1 X47.009 Y57.949 E.00363
G1 X46.971 Y57.85
G1 E-.28 F3600
;WIPE_START
G1 F1800
G1 X47.08 Y57.595 E-.02055
G1 X47.151 Y57.325 E-.01592
G1 X47.251 Y57.064 E-.01593
G1 X47.416 Y56.729 E-.02128
G1 X47.665 Y56.337 E-.02649
G1 X47.815 Y56.146 E-.01383
;WIPE_END
G1 E-.006 F3600
G1 Z.4 F36000
G1 X58.953 Y42.26
G1 Z.2
G1 E.4 F3000
;TYPE:Inner wall
G1 F1800
G1 X75.191 Y58.498 E.79946
G1 X58.958 Y74.731 E.79924
G1 X42.72 Y58.494 E.79946
G1 X58.911 Y42.303 E.79715
G1 X58.953 Y41.614 F36000
G1 F1800
G1 X75.838 Y58.498 E.83129
G1 X58.958 Y75.378 E.83106
G1 X42.073 Y58.494 E.83129
G1 X58.911 Y41.656 E.82897
G1 X58.953 Y40.967 F36000
G1 F1800
G1 X76.484 Y58.498 E.86311
G1 X58.958 Y76.024 E.86289
G1 X41.427 Y58.494 E.86311
G1 X58.911 Y41.01 E.8608
M73 P0 R51
G1 X59.008 Y40.376 F36000
;TYPE:Outer wall
G1 F1800
G1 X59.253 Y40.62 E.01203
G1 X77.075 Y58.443 E.87749
G1 X77.075 Y58.553 E.00383
G1 X59.013 Y76.616 E.8893
M73 P1 R51
G1 X58.903 Y76.616 E.00383
G1 X40.836 Y58.549 E.88952
G1 X40.836 Y58.439 E.00383
G1 X58.898 Y40.376 E.8893
G1 X58.948 Y40.376 E.00174
G1 X59.026 Y40.443
G1 E-.28 F3600
;WIPE_START
G1 F1800
G1 X59.253 Y40.62 E-.02225
G1 X60.391 Y41.759 E-.09175
;WIPE_END
G1 E-.006 F3600
G1 Z.4 F36000
G1 X59.614 Y43.018
G1 Z.2
G1 E.4 F3000
;TYPE:Bottom surface
;WIDTH:0.50495
G1 F3600
G1 X58.583 Y43.018 E.03627
G1 X58.121 Y43.48 E.02299
G1 X59.785 Y43.48 E.05855
G1 X60.247 Y43.942 E.02299
G1 X57.659 Y43.942 E.09107
G1 X57.197 Y44.404 E.02299
G1 X60.709 Y44.404 E.12359
G1 X61.171 Y44.866 E.02299
G1 X56.735 Y44.866 E.15611
G1 X56.273 Y45.328 E.02299
G1 X61.633 Y45.328 E.18863
G1 X62.095 Y45.79 E.02299
G1 X55.811 Y45.79 E.22114
G1 X55.349 Y46.252 E.02299
G1 X62.557 Y46.252 E.25366
G1 X63.019 Y46.714 E.02299
G1 X54.887 Y46.714 E.28618
G1 X54.425 Y47.176 E.02299
G1 X63.481 Y47.176 E.3187
G1 X63.943 Y47.638 E.02299
G1 X53.963 Y47.638 E.35122
G1 X53.501 Y48.1 E.02299
G1 X64.405 Y48.1 E.38374
G1 X64.867 Y48.562 E.02299
G1 X53.039 Y48.562 E.41625
G1 X52.577 Y49.024 E.02299
G1 X65.329 Y49.024 E.44877
G1 X65.791 Y49.486 E.02299
G1 X52.115 Y49.486 E.48129
G1 X51.653 Y49.948 E.02299
G1 X66.254 Y49.948 E.51381
G1 X66.716 Y50.41 E.02299
G1 X51.191 Y50.41 E.54633
G1 X50.729 Y50.872 E.02299
G1 X67.178 Y50.872 E.57885
G1 X67.64 Y51.334 E.02299
G1 X50.267 Y51.334 E.61137
G1 X49.805 Y51.796 E.02299
G1 X68.102 Y51.796 E.64388
G1 X68.564 Y52.258 E.02299
G1 X49.343 Y52.258 E.6764
G1 X48.881 Y52.72 E.02299
G1 X69.026 Y52.72 E.70892
G1 X69.488 Y53.183 E.02299
G1 X48.828 Y53.183 E.72702
G1 X49.017 Y53.451 E.01153
G3 X52.739 Y53.645 I1.606 J5.003 E.13409
G1 X69.95 Y53.645 E.60565
G1 X70.412 Y54.107 E.02299
G1 X53.558 Y54.107 E.59308
G3 X54.163 Y54.569 I-2.573 J3.991 E.02679
G1 X70.874 Y54.569 E.58808
G1 X71.336 Y55.031 E.02299
G1 X65.246 Y55.031 E.2143
G2 X61.676 Y55.031 I-1.785 J3.46 E.13052
G1 X54.606 Y55.031 E.24879
G3 X54.96 Y55.493 I-1.996 J1.898 E.02053
G1 X60.977 Y55.493 E.21171
G2 X60.509 Y55.955 I2.051 J2.541 E.02316
G1 X55.254 Y55.955 E.18495
G3 X55.48 Y56.417 I-2.896 J1.702 E.01812
G1 X60.168 Y56.417 E.16498
G2 X59.92 Y56.879 I2.159 J1.454 E.01848
G1 X55.646 Y56.879 E.15042
G3 X55.767 Y57.341 I-2.177 J.821 E.01684
G1 X59.742 Y57.341 E.13987
G2 X59.628 Y57.803 I5.858 J1.688 E.01675
G1 X55.857 Y57.803 E.13271
G3 X55.897 Y58.265 I-2.988 J.492 E.01634
G1 X59.576 Y58.265 E.12947
G2 X59.576 Y58.727 I2.285 J.235 E.01629
G1 X55.89 Y58.727 E.12969
G3 X55.855 Y59.189 I-2.195 J.063 E.01634
G1 X59.629 Y59.189 E.13281
G2 X59.742 Y59.651 I6.585 J-1.373 E.01675
G1 X55.777 Y59.651 E.13952
G3 X55.65 Y60.113 I-10.199 J-2.555 E.01686
G1 X59.922 Y60.113 E.15031
G2 X60.171 Y60.575 I2.409 J-1.003 E.01851
G1 X55.472 Y60.575 E.16537
G1 X55.253 Y61.037 E.01799
G1 X60.513 Y61.037 E.18508
G2 X60.984 Y61.499 I2.52 J-2.099 E.02327
G1 X54.714 Y61.499 E.22065
G1 E-.28
;WIPE_START
G1 X56.714 Y61.499 E-.114
;WIPE_END
G1 E-.006
G1 Z.4 F36000
G1 X65.607 Y55.493
G1 Z.2
G1 E.4 F3000
G1 F3600
G1 X71.798 Y55.493 E.21788
G1 X72.26 Y55.955 E.02299
G1 X66.414 Y55.955 E.20572
G3 X66.758 Y56.417 I-3.565 J3.012 E.02028
G1 X72.722 Y56.417 E.20988
G1 X73.184 Y56.879 E.02299
G1 X67.006 Y56.879 E.21741
G3 X67.185 Y57.341 I-5.725 J2.478 E.01744
G1 X73.646 Y57.341 E.22738
G1 X74.108 Y57.803 E.02299
G1 X67.295 Y57.803 E.23977
G3 X67.349 Y58.265 I-2.257 J.499 E.0164
G1 X74.57 Y58.265 E.25413
G1 X74.803 Y58.498 E.01161
G1 X74.575 Y58.727 E.01139
G1 X67.349 Y58.727 E.25428
G3 X67.295 Y59.189 I-2.31 J-.035 E.0164
G1 X74.112 Y59.189 E.23992
G1 X73.65 Y59.651 E.02299
G1 X67.184 Y59.651 E.22757
G3 X67.003 Y60.113 I-2.374 J-.661 E.01749
G1 X73.188 Y60.113 E.21766
G1 X72.726 Y60.575 E.02299
G1 X66.752 Y60.575 E.21023
G3 X66.413 Y61.037 I-4.055 J-2.622 E.02018
G1 X72.264 Y61.037 E.20591
G1 X71.802 Y61.499 E.02299
G1 X65.601 Y61.499 E.21822
G1 E-.28
;WIPE_START
G1 X67.601 Y61.499 E-.114
;WIPE_END
G1 E-.006
G1 Z.4 F36000
G1 X71.631 Y61.961
G1 Z.2
G1 E.4 F3000
G1 F3600
G1 X65.234 Y61.961 E.22512
G3 X61.687 Y61.961 I-1.774 J-3.441 E.12969
G1 X54.608 Y61.961 E.2491
G3 X54.145 Y62.423 I-2.523 J-2.065 E.02306
G1 X70.878 Y62.423 E.58886
G1 X70.416 Y62.885 E.02299
G1 X53.563 Y62.885 E.59309
G1 X52.931 Y63.254 E.02573
G1 X52.72 Y63.347 E.00811
G1 X69.954 Y63.347 E.60647
G1 X69.492 Y63.809 E.02299
G1 X48.83 Y63.809 E.72713
G1 X48.663 Y64.049 E.01028
G1 X48.885 Y64.271 E.01105
G1 X69.03 Y64.271 E.70892
G1 X68.568 Y64.733 E.02299
G1 X49.347 Y64.733 E.6764
G1 X49.809 Y65.195 E.02299
G1 X68.106 Y65.195 E.64388
G1 X67.644 Y65.657 E.02299
G1 X50.271 Y65.657 E.61136
G1 X50.733 Y66.119 E.02299
G1 X67.182 Y66.119 E.57884
G1 X66.72 Y66.581 E.02299
G1 X51.195 Y66.581 E.54632
G1 X51.657 Y67.043 E.02299
G1 X66.258 Y67.043 E.51381
G1 X65.796 Y67.505 E.02299
G1 X52.119 Y67.505 E.48129
G1 X52.581 Y67.967 E.02299
G1 X65.334 Y67.967 E.44877
G1 X64.872 Y68.429 E.02299
G1 X53.044 Y68.429 E.41625
G1 X53.506 Y68.892 E.02299
G1 X64.41 Y68.892 E.38373
G1 X63.948 Y69.354 E.02299
G1 X53.968 Y69.354 E.35121
G1 X54.43 Y69.816 E.02299
G1 X63.486 Y69.816 E.3187
G1 X63.024 Y70.278 E.02299
G1 X54.892 Y70.278 E.28618
G1 X55.354 Y70.74 E.02299
G1 X62.562 Y70.74 E.25366
G1 X62.1 Y71.202 E.02299
G1 X55.816 Y71.202 E.22114
G1 X56.278 Y71.664 E.02299
G1 X61.638 Y71.664 E.18862
G1 X61.176 Y72.126 E.02299
G1 X56.74 Y72.126 E.1561
G1 X57.202 Y72.588 E.02299
G1 X60.714 Y72.588 E.12358
G1 X60.252 Y73.05 E.02299
G1 X57.664 Y73.05 E.09107
G1 X58.126 Y73.512 E.02299
G1 X59.79 Y73.512 E.05855
G1 X59.328 Y73.974 E.02299
G1 X58.297 Y73.974 E.03627
G1 E-.28
;WIPE_START
G1 X59.328 Y73.974 E-.05874
G1 X59.79 Y73.512 E-.03724
G1 X59.473 Y73.512 E-.01801
;WIPE_END
G1 E-.006
G1 Z.4 F36000
G1 X48.603 Y63.655
G1 Z.2
G1 E.4 F3000
;TYPE:Gap infill
;WIDTH:0.520831
G1 F1800
G1 X48.46 Y63.556 E.00634
;WIDTH:0.487336
G1 X48.317 Y63.457 E.00589
;WIDTH:0.451239
G1 X48.162 Y63.349 E.00587
;WIDTH:0.415687
G1 X48.051 Y63.266 E.00393
;WIDTH:0.377034
G1 X47.941 Y63.183 E.00352
;WIDTH:0.335827
G1 X47.823 Y63.093 E.0033
;WIDTH:0.297361
G1 X47.668 Y62.968 E.00386
;WIDTH:0.25542
G1 X47.509 Y62.838 E.00333
;WIDTH:0.214998
G1 X47.358 Y62.705 E.00264
;WIDTH:0.158681
G1 X46.909 Y62.289 E.0054
G1 X46.453 Y61.808 E.00584
;WIDTH:0.178275
G1 X46.341 Y61.683 E.00173
;WIDTH:0.197675
G1 X46.217 Y61.534 E.00229
;WIDTH:0.233802
G1 X46.087 Y61.378 E.00295
;WIDTH:0.268845
G1 X46.004 Y61.271 E.00233
;WIDTH:0.303251
G1 X45.922 Y61.164 E.00268
;WIDTH:0.340637
G1 X45.831 Y61.047 E.00335
;WIDTH:0.375812
G1 X45.755 Y60.939 E.00335
;WIDTH:0.419502
G1 X45.678 Y60.831 E.00379
;WIDTH:0.467789
G1 X45.592 Y60.711 E.00478
;WIDTH:0.512523
G1 X45.455 Y60.504 E.0089
G1 E-.28 F3600
;WIPE_START
G1 F1800
G1 X45.592 Y60.711 E-.114
;WIPE_END
G1 E-.006 F3600
G1 Z.4 F36000
G1 X45.748 Y56.994
G1 Z.2
G1 E.4 F3000
;TYPE:Bottom surface
;WIDTH:0.541636
G1 F3600
G1 X44.607 Y56.994 E.04333
G1 X44.108 Y57.493 E.02679
G1 X45.419 Y57.493 E.04979
G2 X45.344 Y57.991 I2.261 J.598 E.0192
G1 X43.61 Y57.991 E.06586
G1 X43.111 Y58.49 E.02679
G1 X45.316 Y58.49 E.08374
G2 X45.34 Y58.989 I3.259 J.091 E.01898
G1 X43.603 Y58.989 E.06598
G1 X44.102 Y59.488 E.02679
G1 X45.418 Y59.488 E.05
G2 X45.533 Y59.986 I2.184 J-.24 E.01948
G1 X44.309 Y59.986 E.04647
G1 E-.28
;WIPE_START
G1 X45.533 Y59.986 E-.06973
G1 X45.418 Y59.488 E-.02917
G1 X45.153 Y59.488 E-.0151
;WIPE_END
G1 E-.006
G1 Z.4 F36000
G1 X45.448 Y56.483
G1 Z.2
G1 E.4 F3000
;TYPE:Gap infill
;WIDTH:0.478748
G1 F1800
G1 X45.56 Y56.323 E.00649
;WIDTH:0.438997
G1 X45.673 Y56.163 E.00589
;WIDTH:0.399247
G1 X45.785 Y56.003 E.0053
;WIDTH:0.361289
G1 X45.877 Y55.882 E.00369
;WIDTH:0.320848
G1 X45.961 Y55.772 E.00293
;WIDTH:0.283728
G1 X46.045 Y55.662 E.00254
;WIDTH:0.244962
G1 X46.178 Y55.5 E.00323
;WIDTH:0.204931
G1 X46.306 Y55.345 E.00247
;WIDTH:0.15841
G1 X46.578 Y55.04 E.0036
;WIDTH:0.149641
G1 X47.151 Y54.466 E.00659
;WIDTH:0.192779
G1 X47.459 Y54.192 E.0047
;WIDTH:0.242716
G1 X47.618 Y54.061 E.00314
;WIDTH:0.282194
G1 X47.773 Y53.933 E.00366
;WIDTH:0.318155
G1 X47.887 Y53.845 E.00303
;WIDTH:0.356626
G1 X47.995 Y53.763 E.00323
;WIDTH:0.39278
G1 X48.103 Y53.681 E.0036
;WIDTH:0.434847
G1 X48.275 Y53.56 E.00631
;WIDTH:0.47798
G1 X48.437 Y53.446 E.00655
;WIDTH:0.518498
G1 X48.598 Y53.332 E.00716
; stop printing object v0.2_extended_feet_special.stl id:0 copy 0
EXCLUDE_OBJECT_END NAME=v0.2_extended_feet_special.stl_id_0_copy_0
M106 S76.5
;LAYER_CHANGE
;Z:0.4
;HEIGHT:0.2
;BEFORE_LAYER_CHANGE
;0.4
G92 E0

G1 E-.28 F3600
;WIPE_START
G1 F1800
G1 X48.437 Y53.446 E-.114
;WIPE_END
G1 E-.006 F3600
G1 Z.4 F36000
;AFTER_LAYER_CHANGE
;0.4
M204 S5000
; printing object v0.2_extended_feet_special.stl id:0 copy 0
EXCLUDE_OBJECT_START NAME=v0.2_extended_feet_special.stl_id_0_copy_0
M204 S20000
G1 X63.399 Y55.174
G1 E.4 F3000
M204 S5000
;TYPE:Inner wall
;WIDTH:0.5
G1 F3600
G1 X63.683 Y55.177 E.00991
G3 X62.977 Y55.206 I-.221 J3.316 E.70224
G1 X63.33 Y55.173 E.01232
G1 X63.339 Y55.173 E.00031
M204 S20000
G1 X63.394 Y55.631 F36000
M204 S5000
G1 F3600
G1 X63.653 Y55.634 E.00902
G3 X63.044 Y55.658 I-.191 J2.859 E.60551
G1 X63.334 Y55.631 E.01014
M204 S20000
G1 X63.389 Y56.088 F36000
M204 S5000
G1 F3600
G1 X63.622 Y56.091 E.00812
G3 X63.111 Y56.111 I-.16 J2.402 E.50881
G1 X63.329 Y56.091 E.00764
M204 S20000
G1 X63.32 Y56.551 F36000
M204 S1000
;TYPE:Outer wall
G1 F2035.41
M106 S204
G1 X63.384 Y56.545 E.00224
G1 F2048.43
G1 X63.798 Y56.572 E.01444
G1 F2046.088
G1 X64 Y56.619 E.00722
G1 F2041.951
G1 X64.385 Y56.775 E.01446
G1 X64.727 Y57.009 E.01443
G1 F2047.028
G1 X65.012 Y57.31 E.01443
G1 F2049.399
G1 X65.228 Y57.664 E.01444
G1 X65.306 Y57.856 E.00721
G1 F2047.973
G1 X65.399 Y58.26 E.01443
G1 F2043.02
G1 X65.404 Y58.675 E.01445
G1 F2042.501
G1 X65.374 Y58.88 E.00721
G1 X65.249 Y59.276 E.01446
G1 F2047.509
G1 X65.043 Y59.636 E.01444
G1 F2049.352
G1 X64.766 Y59.944 E.01442
G1 X64.43 Y60.187 E.01444
G1 F2045.072
G1 X64.05 Y60.353 E.01444
G1 F2043.007
G1 X63.644 Y60.435 E.01442
G1 X63.229 Y60.43 E.01445
G1 F2047.972
G1 X62.825 Y60.337 E.01443
G1 F2052.229
G1 X62.45 Y60.161 E.01442
G1 F2049.342
G1 X62.12 Y59.909 E.01446
G1 F2044.579
G1 X61.852 Y59.593 E.01442
G1 F2041.95
G1 X61.744 Y59.416 E.00722
