; generated by SuperSlicer 2.5.59 on 2022-10-08 at 04:03:09 UTC


;
;

;
;
; 

; external perimeters extrusion width = 0.50mm
; perimeters extrusion width = 0.50mm
; infill extrusion width = 0.50mm
; solid infill extrusion width = 0.50mm
; top infill extrusion width = 0.50mm

; object:{"name":"3DBenchy","id":"3DBenchy.stl id:0 copy 0","object_center":[120.940000,125.000000,0.000000],"boundingbox_center":[120.940000,125.000000,24.000000],"boundingbox_size":[60.000999,31.004000,48.000000]}
; plater:{"center":[120.940000,125.000000,0.000000],"boundingbox_center":[120.940000,125.000000,24.000000],"boundingbox_size":[60.000999,31.004000,48.000000]}

M73 P0 R10
;TYPE:Custom
; custom gcode: start_gcode
PRINT_START BED_TEMP=120 EXTRUDER_TEMP=300 AREA_START=107.892,116.983 AREA_END=146.821,133.017
; custom gcode end: start_gcode
M107
G21 ; set units to millimeters
G90 ; use absolute coordinates
M83 ; use relative distances for extrusion
; custom gcode: start_filament_gcode
; Filament gcode
; custom gcode end: start_filament_gcode
;_TOOLCHANGE 0
M109 S300 ; set temperature and wait for it to be reached
M190 S120 ; set bed temperature and wait for it to be reached
;LAYER_CHANGE
;Z:0.25
;HEIGHT:0.25
G1 Z0.25 F48000
G92 E0
; printing object 3DBenchy.stl id:0 copy 0
M204 S30000
M73 P3 R10
G1 X119.042 Y121.853
; custom gcode: feature_gcode
; External perimeter
;ExternalPerimeter
status_print_external_perimeter

; Perimeter

; custom gcode end: feature_gcode

;TYPE:External perimeter
;WIDTH:0.5
G1 F36000
G1 X118.903 Y122.183 E0.01535
G1 X118.91 Y122.561 E0.01619
G1 X119.035 Y122.904 E0.01568
G1 X119.762 Y124.119 E0.06067
G1 X119.805 Y124.295 E0.00777
G1 X119.724 Y124.542 E0.01113
G1 X119.027 Y125.728 E0.05898
G1 X118.983 Y126.068 E0.01468
G1 X119.02 Y126.388 E0.01381
G1 X119.216 Y126.65 E0.01405
G1 X119.496 Y126.835 E0.01436
G1 X119.833 Y126.862 E0.01451
G1 X120.126 Y126.715 E0.01405
G1 X120.336 Y126.527 E0.01211
G1 X120.601 Y126.011 E0.02486
G1 X120.753 Y125.825 E0.01029
G1 X121.024 Y126.193 E0.01958
G1 X121.074 Y126.409 E0.00952
G1 X121.454 Y126.775 E0.02263
G1 X121.707 Y126.864 E0.01148
G1 X122.221 Y126.765 E0.02242
G1 X122.431 Y126.609 E0.01121
G1 X122.579 Y126.39 E0.01135
G1 X122.626 Y126.082 E0.01334
G1 X122.576 Y125.813 E0.01176
G1 X122.414 Y125.441 E0.01739
G1 X121.942 Y124.612 E0.04091
G1 X121.702 Y124.239 E0.01899
G1 X122.035 Y123.743 E0.02562
G1 X122.21 Y123.414 E0.01598
G1 X122.366 Y123.085 E0.01562
G1 X122.549 Y122.591 E0.02256
G1 X122.586 Y122.216 E0.01618
G1 X122.435 Y121.83 E0.01775
G1 X122.13 Y121.636 E0.01551
G1 X121.797 Y121.584 E0.01442
G1 X121.497 Y121.724 E0.01419
G1 X121.303 Y121.925 E0.01198
G1 X120.973 Y122.573 E0.03118
G1 X120.853 Y122.764 E0.00965
G1 X120.614 Y122.466 E0.01637
G1 X120.347 Y121.872 E0.02794
G1 X119.999 Y121.594 E0.01906
G1 X119.652 Y121.546 E0.01505
G1 X119.308 Y121.639 E0.01526
G1 X119.042 Y121.853 E0.01464
;WIPE_START
G1 X118.642 Y121.837 F48000
;WIPE_END
G1 X118.609 Y120.595
G1 F36000
G1 X118.817 Y120.461 E0.01059
G1 X118.957 Y120.255 E0.01067
G1 X118.981 Y119.743 E0.02199
G1 X118.779 Y119.331 E0.01964
G1 X118.434 Y119.082 E0.01825
G1 X118.002 Y119.03 E0.01868
G1 X117.36 Y119.192 E0.02839
G1 X117.068 Y119.336 E0.01395
G1 X116.567 Y119.83 E0.03016
G1 X116.247 Y120.461 E0.03031
G1 X115.652 Y121.999 E0.07071
G1 X114.473 Y125.377 E0.15338
G1 X114.355 Y126.002 E0.02725
G1 X114.408 Y126.262 E0.01139
G1 X114.531 Y126.576 E0.01446
G1 X114.802 Y126.785 E0.01466
G1 X115.054 Y126.862 E0.01127
G1 X115.364 Y126.793 E0.01361
G1 X115.622 Y126.573 E0.01454
G1 X115.799 Y126.318 E0.01329
G1 X115.978 Y125.894 E0.01973
G1 X116.139 Y125.207 E0.03026
G1 X116.363 Y124.481 E0.03257
G1 X116.651 Y125.099 E0.02926
G1 X116.904 Y126.189 E0.04796
G1 X117.05 Y126.49 E0.01433
G1 X117.233 Y126.672 E0.01108
G1 X117.62 Y126.843 E0.01811
G1 X117.995 Y126.852 E0.01608
G1 X118.221 Y126.772 E0.01027
G1 X118.509 Y126.446 E0.01868
G1 X118.533 Y125.76 E0.0294
G1 X118.471 Y125.516 E0.01082
G1 X117.548 Y123.066 E0.11221
G1 X117.244 Y122.295 E0.03554
G1 X117.294 Y122.092 E0.00897
G1 X117.477 Y121.709 E0.01818
G1 X117.693 Y121.144 E0.02596
G1 X117.817 Y120.938 E0.0103
G1 X118.121 Y120.736 E0.01566
G1 X118.609 Y120.595 E0.02176
;WIPE_START
G1 X118.946 Y120.811 F48000
;WIPE_END
G1 X114.054 Y122.163
G1 F36000
G1 X113.95 Y121.916 E0.01151
G1 X113.77 Y121.706 E0.01187
G1 X113.551 Y121.588 E0.01064
G1 X113.306 Y121.548 E0.01064
G1 X112.703 Y121.576 E0.02589
G1 X111.794 Y121.582 E0.03893
G1 X111.321 Y121.611 E0.02032
G1 X110.699 Y121.702 E0.02696
G1 X110.33 Y121.896 E0.01789
G1 X110.149 Y122.329 E0.02011
G1 X110.206 Y122.867 E0.02322
G1 X110.473 Y123.093 E0.01498
G1 X110.799 Y123.22 E0.01501
G1 X111.196 Y123.264 E0.01712
G1 X111.809 Y123.236 E0.02629
G1 X111.632 Y123.537 E0.01494
G1 X111.079 Y124.225 E0.03785
G1 X110.551 Y124.965 E0.03899
G1 X110.258 Y125.43 E0.02356
G1 X110.138 Y125.813 E0.01718
G1 X110.145 Y126.177 E0.01562
G1 X110.304 Y126.579 E0.0185
G1 X110.539 Y126.778 E0.01322
G1 X110.976 Y126.869 E0.01915
G1 X113.187 Y126.853 E0.09476
G1 X113.601 Y126.739 E0.01842
G1 X113.814 Y126.578 E0.01146
G1 X113.917 Y126.349 E0.01076
G1 X113.936 Y125.848 E0.02149
G1 X113.875 Y125.581 E0.01173
M73 P3 R9
G1 X113.652 Y125.345 E0.01394
G1 X113.318 Y125.228 E0.01515
G1 X112.818 Y125.171 E0.02158
G1 X112.349 Y125.198 E0.02016
G1 X113.244 Y124.066 E0.06185
G1 X113.756 Y123.368 E0.03712
G1 X113.891 Y123.156 E0.01077
G1 X114.084 Y122.631 E0.02397
G1 X114.054 Y122.163 E0.02009
;WIPE_START
G1 X114.321 Y121.866 F48000
;WIPE_END
G1 X122.921 Y122.576
G1 F36000
G1 X122.945 Y122.993 E0.01791
G1 X123.046 Y123.327 E0.01495
G1 X123.191 Y123.534 E0.01083
G1 X123.575 Y123.842 E0.02112
G1 X123.91 Y123.953 E0.01512
G1 X124.401 Y123.934 E0.02103
G1 X124.634 Y123.836 E0.01087
G1 X125.043 Y123.534 E0.02176
G1 X125.302 Y123.171 E0.01914
G1 X125.418 Y122.747 E0.01886
G1 X125.407 Y122.33 E0.01785
G1 X125.328 Y121.996 E0.01473
G1 X125.191 Y121.783 E0.01088
G1 X124.833 Y121.461 E0.02062
G1 X124.269 Y121.288 E0.02529
G1 X123.784 Y121.346 E0.02094
G1 X123.283 Y121.661 E0.02536
G1 X123.121 Y121.864 E0.01114
G1 X122.921 Y122.576 E0.03169
;WIPE_START
G1 X122.571 Y122.769 F48000
;WIPE_END
G1 X125.29 Y123.65
G1 F36000
G1 X125.028 Y124.458 E0.03642
G1 X124.982 Y124.832 E0.01614
G1 X124.978 Y125.373 E0.0232
G1 X125.057 Y126.021 E0.02798
G1 X125.208 Y126.561 E0.02404
G1 X125.317 Y126.822 E0.01213
G1 X125.506 Y127.162 E0.0167
G1 X125.952 Y127.683 E0.02938
G1 X126.438 Y128.007 E0.02505
G1 X126.862 Y128.161 E0.01934
G1 X127.423 Y128.263 E0.02445
G1 X127.965 Y128.3 E0.02328
G1 X129.115 Y128.316 E0.04929
G1 X129.413 Y128.304 E0.01278
G1 X129.942 Y128.102 E0.02426
G1 X130.146 Y127.85 E0.01391
G1 X130.2 Y127.507 E0.0149
G1 X130.156 Y126.944 E0.02419
G1 X130.175 Y122.623 E0.18523
G1 X130.108 Y122.257 E0.01597
G1 X129.947 Y121.959 E0.01449
G1 X129.681 Y121.772 E0.01397
G1 X129.359 Y121.731 E0.01389
G1 X128.902 Y121.774 E0.0197
G1 X128.087 Y121.766 E0.03492
G1 X127.556 Y121.793 E0.02279
G1 X127.124 Y121.857 E0.01873
G1 X126.752 Y121.957 E0.01653
G1 X126.323 Y122.184 E0.02079
G1 X125.961 Y122.527 E0.02139
G1 X125.664 Y122.9 E0.02042
G1 X125.464 Y123.222 E0.01626
G1 X125.29 Y123.65 E0.01979
;WIPE_START
G1 X124.899 Y123.733 F48000
;WIPE_END
G1 X130.877 Y123.767
G1 F36000
G1 X131.006 Y124.489 E0.03146
G1 X131.18 Y124.93 E0.02031
G1 X131.546 Y125.331 E0.02329
G1 X131.844 Y125.497 E0.01462
G1 X131.48 Y125.769 E0.01947
G1 X131.198 Y126.27 E0.02467
G1 X131.126 Y126.805 E0.02313
G1 X131.142 Y127.133 E0.01409
G1 X131.245 Y127.494 E0.01609
G1 X131.551 Y127.932 E0.0229
G1 X131.989 Y128.245 E0.02307
G1 X132.303 Y128.368 E0.01445
G1 X132.795 Y128.462 E0.02146
G1 X133.231 Y128.48 E0.01869
G1 X133.572 Y128.458 E0.01467
G1 X134.163 Y128.321 E0.026
G1 X134.723 Y127.996 E0.02774
G1 X134.97 Y127.729 E0.01558
G1 X135.047 Y127.206 E0.0227
G1 X134.976 Y126.927 E0.01235
G1 X134.582 Y126.517 E0.02435
G1 X134.324 Y126.431 E0.01165
G1 X134.091 Y126.479 E0.0102
G1 X133.249 Y126.871 E0.03981
G1 X133.003 Y126.762 E0.01156
G1 X132.978 Y126.507 E0.011
G1 X133.105 Y126.338 E0.00907
G1 X133.33 Y126.226 E0.01079
G1 X134.047 Y126.01 E0.03208
G1 X134.237 Y125.817 E0.01163
G1 X134.4 Y125.374 E0.02021
G1 X134.4 Y125.109 E0.01136
G1 X134.311 Y124.854 E0.01155
G1 X134.087 Y124.641 E0.01328
G1 X133.848 Y124.549 E0.01098
G1 X133.235 Y124.42 E0.02686
G1 X132.924 Y124.221 E0.01578
G1 X132.702 Y123.891 E0.01705
G1 X132.666 Y123.724 E0.00733
G1 X132.791 Y123.349 E0.01693
G1 X133.114 Y123.184 E0.01553
G1 X133.718 Y123.55 E0.0303
G1 X133.954 Y123.636 E0.01073
G1 X134.237 Y123.669 E0.01225
G1 X134.586 Y123.607 E0.01516
G1 X134.862 Y123.434 E0.01396
G1 X135.023 Y123.203 E0.01205
G1 X135.093 Y122.863 E0.01488
G1 X135.057 Y122.569 E0.01273
G1 X134.921 Y122.258 E0.01452
G1 X134.73 Y122.038 E0.01249
G1 X134.213 Y121.745 E0.02549
G1 X133.504 Y121.601 E0.03099
G1 X133.075 Y121.595 E0.0184
G1 X132.681 Y121.634 E0.01698
G1 X132.242 Y121.753 E0.0195
G1 X131.919 Y121.912 E0.01545
G1 X131.556 Y122.191 E0.01961
G1 X131.257 Y122.552 E0.02008
G1 X131.075 Y122.883 E0.01619
G1 X130.925 Y123.331 E0.02027
G1 X130.877 Y123.767 E0.01876
;WIPE_START
G1 X130.536 Y123.976 F48000
;WIPE_END
G1 X135.603 Y126.963
G1 F36000
G1 X135.503 Y127.218 E0.01172
G1 X135.489 Y127.816 E0.02565
G1 X135.62 Y128.052 E0.01158
G1 X135.964 Y128.271 E0.01746
G1 X136.208 Y128.307 E0.01057
G1 X139.45 Y128.294 E0.13899
G1 X140.041 Y128.338 E0.02538
G1 X140.353 Y128.296 E0.01352
G1 X140.564 Y128.181 E0.01032
G1 X140.737 Y127.987 E0.01112
G1 X140.881 Y127.547 E0.01987
G1 X140.766 Y126.981 E0.02474
G1 X140.589 Y126.777 E0.01157
G1 X140.131 Y126.605 E0.02096
G1 X139.394 Y126.68 E0.03179
G1 X139.163 Y126.668 E0.00988
G1 X138.992 Y126.548 E0.009
G1 X139.008 Y125.859 E0.02953
G1 X138.991 Y123.076 E0.11931
G1 X139.032 Y122.403 E0.02889
G1 X138.944 Y122.101 E0.01348
G1 X138.758 Y121.896 E0.01185
G1 X138.445 Y121.762 E0.01461
G1 X138.152 Y121.737 E0.01259
G1 X137.824 Y121.812 E0.01442
G1 X137.552 Y122.03 E0.01497
G1 X137.399 Y122.337 E0.0147
G1 X137.347 Y122.624 E0.01249
G1 X137.347 Y126.659 E0.17299
G1 X136.447 Y126.646 E0.03861
G1 X136.094 Y126.689 E0.01522
G1 X135.853 Y126.774 E0.01097
G1 X135.603 Y126.963 E0.01345
;WIPE_START
G1 X135.203 Y126.95 F48000
;WIPE_END
G1 X141.273 Y127.148
G1 F36000
G1 X141.327 Y127.429 E0.0123
G1 X141.51 Y127.734 E0.01522
G1 X141.832 Y128.036 E0.01895
G1 X142.452 Y128.354 E0.02984
G1 X143.102 Y128.471 E0.02832
G1 X143.755 Y128.453 E0.02799
G1 X144.494 Y128.258 E0.03277
G1 X145.046 Y127.942 E0.02727
G1 X145.589 Y127.394 E0.03309
G1 X145.921 Y126.786 E0.02968
G1 X146.066 Y126.209 E0.02548
G1 X146.117 Y125.548 E0.02844
G1 X146.126 Y124.825 E0.03101
G1 X146.066 Y123.867 E0.04114
G1 X145.977 Y123.449 E0.01831
G1 X145.698 Y122.834 E0.02895
G1 X145.383 Y122.429 E0.02201
G1 X145 Y122.095 E0.02178
G1 X144.674 Y121.896 E0.01638
G1 X144.186 Y121.705 E0.02246
G1 X143.605 Y121.603 E0.0253
G1 X143.166 Y121.598 E0.01883
G1 X142.775 Y121.638 E0.01682
G1 X142.107 Y121.858 E0.03014
G1 X141.525 Y122.329 E0.03214
G1 X141.21 Y122.94 E0.02944
G1 X141.274 Y123.298 E0.0156
G1 X141.483 Y123.571 E0.01474
G1 X141.725 Y123.723 E0.01223
G1 X142.256 Y123.808 E0.02306
G1 X142.497 Y123.743 E0.01071
G1 X142.946 Y123.368 E0.02508
G1 X143.146 Y123.308 E0.00897
G1 X143.568 Y123.304 E0.0181
G1 X143.948 Y123.442 E0.01731
G1 X144.208 Y123.673 E0.01492
G1 X144.414 Y124.095 E0.02014
G1 X144.521 Y124.767 E0.02918
G1 X144.523 Y125.234 E0.02001
G1 X144.406 Y125.996 E0.03305
G1 X144.283 Y126.281 E0.01331
G1 X143.946 Y126.629 E0.02075
G1 X143.707 Y126.735 E0.01123
G1 X143.247 Y126.758 E0.01973
G1 X143.055 Y126.678 E0.00893
G1 X142.492 Y126.35 E0.02792
G1 X142.043 Y126.246 E0.01976
G1 X141.718 Y126.325 E0.01432
G1 X141.494 Y126.509 E0.0124
G1 X141.298 Y126.817 E0.01566
G1 X141.273 Y127.148 E0.01423
;WIPE_START
G1 X140.949 Y127.381 F48000
;WIPE_END
G1 X141.203 Y131.556
G1 F36000
G1 X121.761 Y132.741 E0.83499
G1 X120.937 Y132.767 E0.03535
G1 X119.823 Y132.729 E0.04777
G1 X119.023 Y132.648 E0.03446
G1 X118.211 Y132.519 E0.03525
G1 X117.226 Y132.299 E0.04325
G1 X116.338 Y132.039 E0.03966
G1 X115.489 Y131.73 E0.03872
G1 X114.58 Y131.331 E0.04256
G1 X113.787 Y130.92 E0.03832
G1 X113.172 Y130.555 E0.03066
G1 X112.604 Y130.184 E0.02907
G1 X112.168 Y129.87 E0.02305
G1 X111.597 Y129.421 E0.03115
G1 X111.14 Y129.027 E0.02583
G1 X110.67 Y128.584 E0.02772
G1 X110.097 Y127.987 E0.03544
G1 X109.713 Y127.547 E0.02505
G1 X109.255 Y126.97 E0.03158
G1 X108.88 Y126.45 E0.02749
G1 X108.422 Y125.74 E0.03622
G1 X108.227 Y125.391 E0.01714
G1 X108.143 Y124.973 E0.01825
G1 X108.175 Y124.76 E0.00925
G1 X108.254 Y124.551 E0.00957
G1 X108.71 Y123.803 E0.03756
G1 X109.441 Y122.759 E0.05462
G1 X109.793 Y122.206 E0.02811
G1 X110.447 Y121.497 E0.04132
G1 X110.735 Y121.221 E0.01713
G1 X111.383 Y120.762 E0.03402
G1 X111.962 Y120.286 E0.03212
G1 X112.749 Y119.718 E0.04163
G1 X113.58 Y119.199 E0.04199
G1 X114.456 Y118.729 E0.04262
G1 X115.318 Y118.339 E0.04054
G1 X116.231 Y117.997 E0.0418
G1 X117.106 Y117.733 E0.03918
G1 X118.094 Y117.504 E0.04347
G1 X118.986 Y117.358 E0.03874
G1 X120.008 Y117.259 E0.04403
G1 X120.98 Y117.233 E0.04168
G1 X121.375 Y117.247 E0.01693
G1 X145.137 Y118.684 E1.0205
G1 X145.458 Y118.735 E0.0139
G1 X145.75 Y118.847 E0.01341
G1 X146.041 Y119.055 E0.01533
G1 X146.258 Y119.325 E0.01486
G1 X146.395 Y119.626 E0.01417
G1 X146.47 Y120.03 E0.01763
G1 X146.475 Y122.975 E0.12625
G1 X146.571 Y124.947 E0.08463
G1 X146.565 Y125.427 E0.0206
G1 X146.483 Y126.909 E0.06361
G1 X146.474 Y129.865 E0.12672
G1 X146.359 Y130.475 E0.0266
G1 X145.973 Y131.006 E0.02812
G1 X145.496 Y131.255 E0.02308
G1 X145.144 Y131.316 E0.01533
G1 X141.203 Y131.556 E0.16921
;WIPE_START
G1 X140.983 Y131.222 F48000
;WIPE_END
G1 X146.253 Y123.547
; custom gcode: feature_gcode
; External perimeter
;GapFill
status_print_gap_fill

; Skirt

; custom gcode end: feature_gcode

;TYPE:Gap fill
;WIDTH:0.170786
G1 F36000
G1 X146.199 Y123.22 E0.00373
;WIDTH:0.264547
G1 X146.168 Y123.068 E0.00314
;WIDTH:0.301127
G1 X146.036 Y122.816 E0.00677
;WIDTH:0.197771
G1 X145.843 Y122.589 E0.00412
;WIDTH:0.145201
G1 X145.725 Y122.465 E0.00151
G1 X134.12 Y124.392 F48000
;WIDTH:0.141018
G1 F36000
G1 X134.079 Y124.366 E0.0004
;WIDTH:0.183451
G1 X133.933 Y124.274 E0.00215
;WIDTH:0.244284
G1 X133.808 Y124.209 E0.00258
;WIDTH:0.358587
G1 X133.641 Y124.124 E0.00548
;WIDTH:0.403132
G1 X133.614 Y124.1 E0.00123
;WIDTH:0.53738
G1 X133.476 Y123.98 E0.0085
;WIDTH:0.65138
G1 X133.217 Y123.801 E0.01803
;WIDTH:0.592896
G1 X133.113 Y123.656 E0.00928
;WIDTH:0.395569
G1 X133.119 Y123.499 E0.00515
;WIDTH:0.180683
G1 X133.143 Y123.395 E0.00129
G1 X130.561 Y123.014 F48000
;WIDTH:0.425985
G1 F36000
G1 X130.551 Y123.268 E0.00912
;WIDTH:0.400891
G1 X130.537 Y123.509 E0.00803
;WIDTH:0.35023
G1 X130.532 Y123.968 E0.01308
;WIDTH:0.388127
G1 X130.56 Y124.327 E0.01159
G1 X130.628 Y124.454 E0.00461
;WIDTH:0.309998
G1 X130.704 Y124.594 E0.00392
;WIDTH:0.260479
G1 X130.801 Y124.751 E0.00367
;WIDTH:0.171816
G1 X130.899 Y124.908 E0.0021
;WIDTH:0.141672
G1 X130.925 Y124.949 E0.00041
G1 X130.807 Y124.91 F48000
; custom gcode: feature_gcode
; External perimeter
;SolidInfill
status_print_solid_infill

; Bridge infill

; custom gcode end: feature_gcode

;TYPE:Solid infill
;WIDTH:0.521409
G1 F36000
G1 X130.445 Y124.91 E0.01615
G1 X130.447 Y125.357 E0.01995
G1 X131.219 Y125.357 E0.03448
G1 X131.34 Y125.49 E0.00806
G1 X131.164 Y125.803 E0.01606
G1 X130.258 Y125.803 E0.04049
G1 X130.702 Y125.966 F48000
; custom gcode: feature_gcode
; External perimeter
;GapFill
status_print_gap_fill

; Skirt

; custom gcode end: feature_gcode

;TYPE:Gap fill
;WIDTH:0.649258
G1 F36000
G1 X130.675 Y126.28 E0.01808
;WIDTH:0.676309
G1 X130.659 Y126.52 E0.01434
;WIDTH:0.614651
G1 X130.643 Y126.926 E0.02191
G1 X130.685 Y127.343 E0.02257
;WIDTH:0.646106
G1 X130.727 Y127.495 E0.00897
;WIDTH:0.676693
G1 X130.756 Y127.627 E0.00807
G1 X116.413 Y125.136 F48000
;WIDTH:0.1609
G1 F36000
G1 X116.408 Y125.273 E0.00142
;WIDTH:0.219268
G1 X116.412 Y125.443 E0.0027
;WIDTH:0.313191
G1 X116.355 Y125.739 E0.00752
;WIDTH:0.285048
