; HEADER_BLOCK_START
; generated by OrcaSlicer 1.6.4-beta2 on 2023-08-05 at 21:58:41
; total layer number: 29
; HEADER_BLOCK_END

; THUMBNAIL_BLOCK_START
; thumbnail begin 300x300 6080
; THUMBNAIL_BLOCK_END

; external perimeters extrusion width = 0.40mm
; perimeters extrusion width = 0.40mm
; infill extrusion width = 0.45mm
; solid infill extrusion width = 0.40mm
; top infill extrusion width = 0.40mm
; first layer extrusion width = 0.50mm

; external perimeters extrusion width = 0.40mm
; perimeters extrusion width = 0.40mm
; infill extrusion width = 0.45mm
; solid infill extrusion width = 0.40mm
; top infill extrusion width = 0.40mm
; first layer extrusion width = 0.50mm

; external perimeters extrusion width = 0.40mm
; perimeters extrusion width = 0.40mm
; infill extrusion width = 0.45mm
; solid infill extrusion width = 0.40mm
; top infill extrusion width = 0.40mm
; first layer extrusion width = 0.50mm

; external perimeters extrusion width = 0.40mm
; perimeters extrusion width = 0.40mm
; infill extrusion width = 0.45mm
; solid infill extrusion width = 0.40mm
; top infill extrusion width = 0.40mm
; first layer extrusion width = 0.50mm

; EXECUTABLE_BLOCK_START
EXCLUDE_OBJECT_DEFINE NAME=z-locks-200.stl_id_0_copy_0 CENTER=150,175.202 POLYGON=[[45.1999,173.729],[45.2,172.523],[45.2,172.196],[45.2,172.058],[45.2,171.951],[45.2001,171.95],[47.8486,169.302],[252.152,169.302],[254.8,171.95],[254.8,176.676],[254.8,177.264],[254.8,178.174],[254.8,178.443],[254.8,178.453],[254.8,178.455],[252.151,181.103],[251,181.103],[48.9999,181.103],[47.8485,181.103],[45.1999,178.455],[45.1999,173.729]]
EXCLUDE_OBJECT_DEFINE NAME=z-locks-200.stl_id_1_copy_0 CENTER=150,158.401 POLYGON=[[45.1999,156.928],[45.2,155.721],[45.2,155.394],[45.2,155.257],[45.2,155.15],[45.2001,155.149],[47.8486,152.5],[252.152,152.5],[254.8,155.149],[254.8,159.874],[254.8,160.462],[254.8,161.372],[254.8,161.641],[254.8,161.652],[254.8,161.653],[252.151,164.302],[251,164.302],[48.9999,164.302],[47.8485,164.302],[45.1999,161.653],[45.1999,156.928]]
EXCLUDE_OBJECT_DEFINE NAME=z-locks-200.stl_id_2_copy_0 CENTER=150,141.599 POLYGON=[[45.1999,140.126],[45.2,138.92],[45.2,138.593],[45.2,138.455],[45.2,138.348],[45.2001,138.347],[47.8486,135.698],[252.152,135.698],[254.8,138.347],[254.8,143.073],[254.8,143.661],[254.8,144.571],[254.8,144.84],[254.8,144.85],[254.8,144.851],[252.151,147.5],[251,147.5],[48.9999,147.5],[47.8485,147.5],[45.1999,144.851],[45.1999,140.126]]
EXCLUDE_OBJECT_DEFINE NAME=z-locks-200.stl_id_3_copy_0 CENTER=150,124.798 POLYGON=[[45.1999,123.325],[45.2,122.118],[45.2,121.791],[45.2,121.654],[45.2,121.546],[45.2001,121.545],[47.8486,118.897],[252.152,118.897],[254.8,121.545],[254.8,126.271],[254.8,126.859],[254.8,127.769],[254.8,128.038],[254.8,128.049],[254.8,128.05],[252.151,130.698],[251,130.698],[48.9999,130.698],[47.8485,130.698],[45.1999,128.05],[45.1999,123.325]]
M73 P0 R57
;TYPE:Custom
;PRINT_START EXTRUDER=205 BED=70
M190 S0
M109 S0
PRINT_START EXTRUDER=205 BED=70 CHAMBER=0 NOZZLE=0.4 FILAMENT=PLA PRINT_MIN=41.6003,115.297 PRINT_MAX=258.4,183.993
G90
G21
M83 ; use relative distances for extrusion
; filament start gcode
SET_PRESSURE_ADVANCE ADVANCE=0.03; Override pressure advance value
M106 S0
;LAYER_CHANGE
;Z:0.2
;HEIGHT:0.2
;BEFORE_LAYER_CHANGE
;0.2
G92 E0

G1 E-.5 F1800
;AFTER_LAYER_CHANGE
;0.2
SET_VELOCITY_LIMIT ACCEL=500 ACCEL_TO_DECEL=250
SET_VELOCITY_LIMIT SQUARE_CORNER_VELOCITY=9
G1 X46.862 Y115.673 F21000
G1 Z.2
G1 E.5 F1800
;TYPE:Skirt
;WIDTH:0.5
G1 F3000
G1 X47.849 Y115.526 E.03345
G1 X252.152 Y115.526 E6.84856
G1 X253.733 Y115.92 E.05464
G1 X254.535 Y116.513 E.03345
G1 X257.184 Y119.162 E.12556
G1 X258.024 Y120.559 E.05464
G1 X258.171 Y121.546 E.03344
G1 X258.171 Y176.834 E1.85337
G1 X257.777 Y178.416 E.05464
G1 X257.184 Y179.218 E.03344
G1 X253.628 Y182.774 E.16858
G1 X252.231 Y183.614 E.05464
G1 X251.244 Y183.762 E.03345
G1 X48.748 Y183.765 E6.78799
M73 P0 R56
G1 X47.167 Y183.37 E.05464
G1 X46.366 Y182.777 E.03339
G1 X42.816 Y179.228 E.16829
G1 X41.976 Y177.831 E.05464
G1 X41.829 Y176.844 E.03345
G1 X41.829 Y121.545 E1.85369
G1 X42.223 Y119.964 E.05464
G1 X42.816 Y119.162 E.03345
G1 X45.465 Y116.513 E.12556
G1 X46.828 Y115.694 E.0533
G1 X47.079 Y116.301 F21000
G1 F3000
G1 X47.849 Y115.983 E.02792
G1 X252.152 Y115.983 E6.84856
G1 X254.212 Y116.836 E.07477
G1 X256.861 Y119.485 E.12556
G1 X257.714 Y121.546 E.07476
G1 X257.714 Y176.834 E1.85337
G1 X256.861 Y178.895 E.07476
G1 X253.305 Y182.451 E.16858
G1 X251.244 Y183.305 E.07477
G1 X48.748 Y183.308 E6.78798
G1 X46.689 Y182.454 E.07472
G1 X43.139 Y178.904 E.16829
G1 X42.286 Y176.844 E.07477
G1 X42.286 Y121.545 E1.85369
G1 X43.139 Y119.485 E.07477
G1 X45.788 Y116.836 E.12556
G1 X47.042 Y116.317 E.04551
G1 X47.204 Y116.707 F21000
G1 F3000
G1 X47.849 Y116.44 E.02339
G1 X252.152 Y116.44 E6.84856
G1 X253.889 Y117.16 E.06304
G1 X256.538 Y119.808 E.12556
G1 X257.257 Y121.546 E.06304
G1 X257.257 Y176.834 E1.85337
G1 X256.538 Y178.572 E.06303
G1 X252.982 Y182.128 E.16858
G1 X251.244 Y182.848 E.06304
G1 X48.749 Y182.851 E6.78797
G1 X47.012 Y182.131 E.063
G1 X43.463 Y178.581 E.16829
G1 X42.743 Y176.844 E.06304
G1 X42.743 Y121.545 E1.85369
M73 P1 R56
G1 X43.463 Y119.808 E.06304
G1 X46.111 Y117.159 E.12556
G1 X47.167 Y116.722 E.0383
; printing object z-locks-200.stl id:0 copy 0
EXCLUDE_OBJECT_START NAME=z-locks-200.stl_id_0_copy_0
G1 E-.35 F1800
;WIPE_START
G1 F3000
G1 X47.849 Y116.44 E-.10515
G1 X48.111 Y116.44 E-.03735
;WIPE_END
G1 E-.0075 F1800
G1 X48.096 Y120.256 Z.4 F21000
G1 X47.884 Y175.695 Z.4
G1 Z.2
G1 E.5 F1800
;TYPE:Inner wall
;WIDTH:0.499999
G1 F3000
G1 X47.836 Y175.897 E.00694
G1 X47.836 Y177.833 E.06491
G1 X46.364 Y176.362 E.06977
G1 X46.364 Y172.432 E.13171
G1 X47.836 Y170.961 E.06977
G1 X47.836 Y172.323 E.04567
G1 X47.865 Y172.578 E.00859
G1 X48.018 Y172.942 E.01325
G1 X48.257 Y173.209 E.01204
G1 X48.548 Y173.382 E.01132
G1 X48.978 Y173.466 E.0147
G1 X251.021 Y173.466 E6.77279
G1 X251.456 Y173.38 E.01484
G1 X251.747 Y173.206 E.01137
G1 X251.984 Y172.939 E.01196
G1 X252.136 Y172.578 E.01314
G1 X252.164 Y172.323 E.00859
G1 X252.164 Y170.961 E.04567
G1 X253.636 Y172.432 E.06977
G1 X253.636 Y172.747 E.01055
G1 X253.636 Y176.352 E.12085
G1 X252.164 Y177.824 E.06977
G1 X252.164 Y175.875 E.06535
G1 X252.043 Y175.363 E.01762
G1 X251.747 Y174.992 E.01593
G1 X251.456 Y174.818 E.01137
G1 X251.022 Y174.732 E.01484
G1 X48.979 Y174.754 E6.77279
G1 X48.548 Y174.838 E.01471
G1 X48.257 Y175.01 E.01132
G1 X47.958 Y175.382 E.01601
G1 X47.893 Y175.656 E.00944
G1 X48.317 Y175.796 F21000
G1 F3000
G1 X48.293 Y175.897 E.00347
G1 X48.293 Y178.937 E.1019
G1 X45.907 Y176.551 E.11311
G1 X45.907 Y172.243 E.1444
G1 X48.142 Y170.009 E.10592
G1 X48.293 Y170.009 E.00508
G1 X48.293 Y172.323 E.07758
G1 X48.31 Y172.476 E.00515
G1 X48.402 Y172.694 E.00795
G1 X48.546 Y172.855 E.00722
G1 X48.72 Y172.958 E.00679
G1 X48.979 Y173.009 E.00882
G1 X251.021 Y173.009 E6.77278
G1 X251.282 Y172.957 E.00891
G1 X251.457 Y172.853 E.00682
G1 X251.599 Y172.693 E.00717
G1 X251.69 Y172.476 E.00789
G1 X251.707 Y172.323 E.00516
G1 X251.707 Y170.009 E.07758
G1 X251.859 Y170.009 E.00508
G1 X254.093 Y172.243 E.10592
G1 X254.093 Y172.747 E.0169
G1 X254.093 Y176.542 E.1272
G1 X251.707 Y178.928 E.11311
G1 X251.707 Y175.875 E.10235
G1 X251.635 Y175.568 E.01057
G1 X251.457 Y175.345 E.00956
G1 X251.282 Y175.24 E.00682
G1 X251.022 Y175.189 E.0089
G1 X48.979 Y175.211 E6.77278
G1 X48.72 Y175.262 E.00883
G1 X48.546 Y175.365 E.00679
G1 X48.366 Y175.588 E.0096
G1 X48.326 Y175.757 E.00582
G1 X48.75 Y175.897 F21000
;TYPE:Outer wall
G1 F3000
G1 X48.75 Y180.04 E.13889
G1 X45.45 Y176.74 E.15644
G1 X45.45 Y172.054 E.1571
G1 X47.952 Y169.552 E.11862
G1 X48.75 Y169.552 E.02675
G1 X48.75 Y172.323 E.0929
G1 X48.756 Y172.374 E.00172
G1 X48.834 Y172.5 E.00499
G1 X48.979 Y172.552 E.00513
G1 X251.021 Y172.552 E6.77278
G1 X251.108 Y172.534 E.00297
G1 X251.214 Y172.446 E.00461
G1 X251.25 Y172.323 E.0043
G1 X251.25 Y169.552 E.0929
G1 X252.048 Y169.552 E.02675
G1 X254.55 Y172.054 E.11862
G1 X254.55 Y172.747 E.02324
G1 X254.55 Y176.731 E.13354
G1 X251.25 Y180.031 E.15645
G1 X251.25 Y175.875 E.13934
G1 X251.167 Y175.698 E.00655
G1 X251.022 Y175.646 E.00517
G1 X48.979 Y175.668 E6.77278
G1 X48.834 Y175.719 E.00514
G1 X48.767 Y175.861 E.00524
G1 E-.35 F1800
;WIPE_START
G1 F3000
G1 X48.763 Y176.861 E-.1425
;WIPE_END
G1 E-.0075 F1800
G1 X52.578 Y176.762 Z.4 F21000
G1 X252.301 Y171.583 Z.4
G1 Z.2
G1 E.5 F1800
;TYPE:Bottom surface
;WIDTH:0.500321
G1 F6300
G1 X253.293 Y172.575 E.04705
G1 X253.293 Y173.222 E.0217
G1 X252.496 Y172.425 E.0378
G1 X252.47 Y172.658 E.00787
G1 X252.355 Y172.931 E.00993
G1 X253.293 Y173.868 E.04448
G1 X253.293 Y174.515 E.0217
G1 X252.099 Y173.321 E.05664
G1 X251.966 Y173.472 E.00674
G1 X251.738 Y173.607 E.00888
G1 X253.293 Y175.162 E.07375
G1 X253.293 Y175.809 E.0217
G1 X251.262 Y173.777 E.09638
G1 X251.157 Y173.803 E.0036
G1 X250.646 Y173.809 E.01715
G1 X251.256 Y174.419 E.02895
G1 X251.586 Y174.499 E.0114
G1 X251.968 Y174.728 E.01493
G1 X252.353 Y175.209 E.02068
G1 X252.448 Y175.611 E.01382
G1 X253.17 Y176.333 E.03428
M73 P1 R55
G1 X252.847 Y176.657 E.01534
G1 X252.507 Y176.317 E.01612
G1 X252.507 Y176.963 E.0217
G1 X252.669 Y177.125 E.00768
G1 E-.35 F1800
;WIPE_START
G1 F6300
G1 X252.507 Y176.963 E-.03263
G1 X252.507 Y176.317 E-.09218
G1 X252.595 Y176.404 E-.01769
;WIPE_END
G1 E-.0075 F1800
G1 X250.785 Y174.595 Z.4 F21000
G1 Z.2
G1 E.5 F1800
G1 F6300
G1 X249.999 Y173.809 E.0373
G1 X249.352 Y173.809 E.0217
G1 X249.933 Y174.389 E.02754
M73 P2 R55
G1 X249.286 Y174.389 E.0217
G1 X248.705 Y173.809 E.02755
G1 X248.058 Y173.809 E.0217
G1 X248.639 Y174.389 E.02755
G1 X247.992 Y174.389 E.0217
G1 X247.412 Y173.809 E.02755
G1 X246.765 Y173.809 E.0217
G1 X247.346 Y174.389 E.02756
G1 X246.699 Y174.39 E.0217
G1 X246.118 Y173.809 E.02756
G1 X245.471 Y173.809 E.0217
G1 X246.052 Y174.39 E.02756
G1 X245.405 Y174.39 E.0217
G1 X244.824 Y173.809 E.02757
G1 X244.177 Y173.809 E.0217
G1 X244.758 Y174.39 E.02757
G1 X244.112 Y174.39 E.0217
G1 X243.53 Y173.809 E.02757
G1 X242.884 Y173.809 E.0217
G1 X243.465 Y174.39 E.02758
G1 X242.818 Y174.39 E.0217
G1 X242.237 Y173.809 E.02758
G1 X241.59 Y173.809 E.0217
G1 X242.171 Y174.39 E.02758
G1 X241.524 Y174.39 E.0217
G1 X240.943 Y173.809 E.02759
G1 X240.296 Y173.809 E.0217
G1 X240.878 Y174.39 E.02759
G1 X240.231 Y174.39 E.0217
G1 X239.649 Y173.809 E.02759
G1 X239.002 Y173.809 E.0217
G1 X239.584 Y174.39 E.0276
G1 X238.937 Y174.39 E.0217
G1 X238.355 Y173.809 E.0276
G1 X237.709 Y173.809 E.0217
G1 X238.29 Y174.39 E.0276
G1 X237.644 Y174.391 E.0217
G1 X237.062 Y173.809 E.02761
G1 X236.415 Y173.809 E.0217
G1 X236.997 Y174.391 E.02761
G1 X236.35 Y174.391 E.0217
G1 X235.768 Y173.809 E.02761
G1 X235.121 Y173.809 E.0217
G1 X235.703 Y174.391 E.02762
G1 X235.056 Y174.391 E.0217
G1 X234.474 Y173.809 E.02762
G1 X233.827 Y173.809 E.0217
G1 X234.41 Y174.391 E.02762
G1 X233.763 Y174.391 E.0217
G1 X233.181 Y173.809 E.02763
G1 X232.534 Y173.809 E.0217
G1 X233.116 Y174.391 E.02763
G1 X232.469 Y174.391 E.0217
G1 X231.887 Y173.809 E.02763
G1 X231.24 Y173.809 E.0217
G1 X231.823 Y174.391 E.02764
G1 X231.176 Y174.391 E.0217
G1 X230.593 Y173.809 E.02764
G1 X229.946 Y173.809 E.0217
G1 X230.529 Y174.391 E.02764
G1 X229.882 Y174.391 E.0217
G1 X229.299 Y173.809 E.02765
G1 X228.653 Y173.809 E.0217
G1 X229.235 Y174.391 E.02765
G1 X228.589 Y174.391 E.0217
G1 X228.006 Y173.809 E.02765
G1 X227.359 Y173.809 E.0217
G1 X227.942 Y174.392 E.02766
G1 X227.295 Y174.392 E.0217
G1 X226.712 Y173.809 E.02766
G1 X226.065 Y173.809 E.0217
G1 X226.648 Y174.392 E.02766
G1 X226.001 Y174.392 E.0217
G1 X225.418 Y173.809 E.02767
G1 X224.771 Y173.809 E.0217
G1 X225.355 Y174.392 E.02767
G1 X224.708 Y174.392 E.0217
G1 X224.124 Y173.809 E.02767
G1 X223.478 Y173.809 E.0217
G1 X224.061 Y174.392 E.02768
G1 X223.414 Y174.392 E.0217
G1 X222.831 Y173.809 E.02768
G1 X222.184 Y173.809 E.0217
G1 X222.767 Y174.392 E.02768
G1 X222.121 Y174.392 E.0217
G1 X221.537 Y173.809 E.02769
G1 X220.89 Y173.809 E.0217
G1 X221.474 Y174.392 E.02769
G1 X220.827 Y174.392 E.0217
G1 X220.243 Y173.809 E.02769
G1 X219.596 Y173.809 E.0217
G1 X220.18 Y174.392 E.0277
G1 X219.533 Y174.392 E.0217
G1 X218.95 Y173.809 E.0277
G1 X218.303 Y173.809 E.0217
G1 X218.887 Y174.393 E.0277
G1 X218.24 Y174.393 E.0217
G1 X217.656 Y173.809 E.02771
G1 X217.009 Y173.809 E.0217
G1 X217.593 Y174.393 E.02771
G1 X216.946 Y174.393 E.0217
G1 X216.362 Y173.809 E.02771
G1 X215.715 Y173.809 E.0217
G1 X216.3 Y174.393 E.02772
G1 X215.653 Y174.393 E.0217
G1 X215.068 Y173.809 E.02772
G1 X214.422 Y173.809 E.0217
G1 X215.006 Y174.393 E.02772
G1 X214.359 Y174.393 E.0217
G1 X213.775 Y173.809 E.02773
G1 X213.128 Y173.809 E.0217
G1 X213.712 Y174.393 E.02773
G1 X213.066 Y174.393 E.0217
G1 X212.481 Y173.809 E.02773
G1 X211.834 Y173.809 E.0217
G1 X212.419 Y174.393 E.02774
G1 X211.772 Y174.393 E.0217
G1 X211.187 Y173.809 E.02774
G1 X210.54 Y173.809 E.0217
G1 X211.125 Y174.393 E.02774
G1 X210.478 Y174.393 E.0217
G1 X209.894 Y173.809 E.02775
G1 X209.247 Y173.809 E.0217
G1 X209.832 Y174.394 E.02775
G1 X209.185 Y174.394 E.0217
G1 X208.6 Y173.809 E.02775
G1 X207.953 Y173.809 E.0217
G1 X208.538 Y174.394 E.02776
G1 X207.891 Y174.394 E.0217
G1 X207.306 Y173.809 E.02776
G1 X206.659 Y173.809 E.0217
G1 X207.244 Y174.394 E.02777
G1 X206.598 Y174.394 E.0217
G1 X206.012 Y173.809 E.02777
G1 X205.365 Y173.809 E.0217
G1 X205.951 Y174.394 E.02777
G1 X205.304 Y174.394 E.0217
G1 X204.719 Y173.809 E.02778
G1 X204.072 Y173.809 E.0217
G1 X204.657 Y174.394 E.02778
G1 X204.01 Y174.394 E.0217
G1 X203.425 Y173.809 E.02778
G1 X202.778 Y173.809 E.0217
G1 X203.364 Y174.394 E.02779
G1 X202.717 Y174.394 E.0217
G1 X202.131 Y173.809 E.02779
G1 X201.484 Y173.809 E.0217
G1 X202.07 Y174.394 E.02779
G1 X201.423 Y174.394 E.0217
G1 X200.837 Y173.809 E.0278
G1 X200.191 Y173.809 E.0217
G1 X200.777 Y174.395 E.0278
G1 X200.13 Y174.395 E.0217
G1 X199.544 Y173.809 E.0278
G1 X198.897 Y173.809 E.0217
G1 X199.483 Y174.395 E.02781
G1 X198.836 Y174.395 E.0217
G1 X198.25 Y173.809 E.02781
G1 X197.603 Y173.809 E.0217
G1 X198.189 Y174.395 E.02781
G1 X197.543 Y174.395 E.0217
G1 X196.956 Y173.809 E.02782
G1 X196.309 Y173.809 E.0217
G1 X196.896 Y174.395 E.02782
G1 X196.249 Y174.395 E.0217
G1 X195.663 Y173.809 E.02782
G1 X195.016 Y173.809 E.0217
G1 X195.602 Y174.395 E.02783
G1 X194.955 Y174.395 E.0217
G1 X194.369 Y173.809 E.02783
G1 X193.722 Y173.809 E.0217
G1 X194.309 Y174.395 E.02783
G1 X193.662 Y174.395 E.0217
G1 X193.075 Y173.809 E.02784
G1 X192.428 Y173.809 E.0217
G1 X193.015 Y174.395 E.02784
G1 X192.368 Y174.395 E.0217
G1 X191.781 Y173.809 E.02784
G1 X191.134 Y173.809 E.0217
G1 X191.721 Y174.396 E.02785
G1 X191.075 Y174.396 E.0217
G1 X190.488 Y173.809 E.02785
G1 X189.841 Y173.809 E.0217
G1 X190.428 Y174.396 E.02785
G1 X189.781 Y174.396 E.0217
G1 X189.194 Y173.809 E.02786
G1 X188.547 Y173.809 E.0217
G1 X189.134 Y174.396 E.02786
G1 X188.488 Y174.396 E.0217
G1 X187.9 Y173.809 E.02786
G1 X187.253 Y173.809 E.0217
G1 X187.841 Y174.396 E.02787
G1 X187.194 Y174.396 E.0217
G1 X186.606 Y173.809 E.02787
G1 X185.96 Y173.809 E.0217
G1 X186.547 Y174.396 E.02787
G1 X185.9 Y174.396 E.0217
G1 X185.313 Y173.809 E.02788
G1 X184.666 Y173.809 E.0217
G1 X185.254 Y174.396 E.02788
G1 X184.607 Y174.396 E.0217
G1 X184.019 Y173.809 E.02788
G1 X183.372 Y173.809 E.0217
G1 X183.96 Y174.396 E.02789
G1 X183.313 Y174.396 E.0217
G1 X182.725 Y173.809 E.02789
G1 X182.078 Y173.809 E.0217
G1 X182.666 Y174.397 E.02789
G1 X182.02 Y174.397 E.0217
G1 X181.432 Y173.809 E.0279
G1 X180.785 Y173.809 E.0217
G1 X181.373 Y174.397 E.0279
G1 X180.726 Y174.397 E.0217
G1 X180.138 Y173.809 E.0279
G1 X179.491 Y173.809 E.0217
G1 X180.079 Y174.397 E.02791
G1 X179.432 Y174.397 E.0217
G1 X178.844 Y173.809 E.02791
G1 X178.197 Y173.809 E.0217
G1 X178.786 Y174.397 E.02791
G1 X178.139 Y174.397 E.0217
G1 X177.55 Y173.809 E.02792
G1 X176.904 Y173.809 E.0217
G1 X177.492 Y174.397 E.02792
G1 X176.845 Y174.397 E.0217
G1 X176.257 Y173.809 E.02792
G1 X175.61 Y173.809 E.0217
G1 X176.198 Y174.397 E.02793
G1 X175.552 Y174.397 E.0217
G1 X174.963 Y173.809 E.02793
